shell/ffmpeg_scripts/ff_lut3d_cube/2000sBroadcastColour_DesaturatedAndDarker.cube
# Created by: G'MIC (https://gmic.eu)
TITLE "vlcsnap-2023-11-26-00h41m50s633-2"
# LUT size
LUT_3D_SIZE 32
# Data domain
DOMAIN_MIN 0.0 0.0 0.0
DOMAIN_MAX 1.0 1.0 1.0
# LUT data points
0.027587639167904854 0.025888601318001747 0.0083106821402907372
0.030432680621743202 0.02802615612745285 0.0084678670391440392
0.034679565578699112 0.029335476458072662 0.0098870843648910522
0.041865479201078415 0.026475738734006882 0.013525552116334438
0.054798886179924011 0.025568185374140739 0.026022525504231453
0.064784549176692963 0.024495996534824371 0.016453476622700691
0.076751865446567535 0.021873500198125839 0.0032953182235360146
0.081236563622951508 0.018993427976965904 0.0021574513521045446
0.081431522965431213 0.016166944056749344 0.0032639610581099987
0.090682588517665863 0.016802007332444191 0.0040199151262640953
0.11116362363100052 0.017720155417919159 0.0049453219398856163
0.1334536224603653 0.017981069162487984 0.0066439025104045868
0.15772806107997894 0.018716473132371902 0.0086440872400999069
0.18121974170207977 0.021224370226264 0.01108281034976244
0.20285794138908386 0.025515483692288399 0.014339040033519268
0.22484685480594635 0.030615108087658882 0.018424682319164276
0.24864943325519562 0.036051329225301743 0.022866172716021538
0.27411159873008728 0.041432611644268036 0.027285454794764519
0.30075708031654358 0.046473611146211624 0.031523875892162323
0.32732993364334106 0.051028288900852203 0.03545524924993515
0.35127231478691101 0.054271969944238663 0.038123570382595062
0.37561085820198059 0.056057039648294449 0.039395995438098907
0.40103787183761597 0.05706406757235527 0.039958745241165161
0.42763122916221619 0.057641264051198959 0.04018833115696907
0.45487481355667114 0.05807572603225708 0.040377147495746613
0.47883141040802002 0.058760140091180801 0.040918447077274323
0.50161284208297729 0.059186071157455444 0.041441459208726883
0.52480393648147583 0.059310369193553925 0.04179701954126358
0.54844474792480469 0.05911555141210556 0.041926249861717224
0.57250583171844482 0.058588135987520218 0.041786115616559982
0.59700977802276611 0.057743195444345474 0.041367348283529282
0.62196105718612671 0.056626640260219574 0.040694653987884521
0.022461473941802979 0.024091834202408791 0.0081581296399235725
0.031341481953859329 0.027944669127464294 0.010888758115470409
0.03674708679318428 0.027980925515294075 0.0093497475609183311
0.031971070915460587 0.024610009044408798 0.0080366171896457672
0.049109756946563721 0.029665350914001465 0.027634983882308006
0.061639372259378433 0.02657318115234375 0.012743921019136906
0.078962557017803192 0.024249149486422539 0.0018491282826289535
0.072876192629337311 0.017088534310460091 0.0017263795016333461
0.068955622613430023 0.017213461920619011 0.0029166827443987131
0.084712401032447815 0.021579492837190628 0.0035324562340974808
0.10602661967277527 0.022701043635606766 0.0045965500175952911
0.12820053100585938 0.022713238373398781 0.0063062249682843685
0.15204358100891113 0.023311242461204529 0.0081685967743396759
0.17474225163459778 0.027112405747175217 0.010888668708503246
0.19575600326061249 0.031944703310728073 0.014328767545521259
0.21772198379039764 0.037745561450719833 0.018627732992172241
0.24159762263298035 0.044043697416782379 0.023248478770256042
0.26697790622711182 0.050284832715988159 0.027875538915395737
0.294240802526474 0.056127693504095078 0.032370783388614655
0.31955304741859436 0.061282936483621597 0.03651554137468338
0.34341385960578918 0.06470208615064621 0.038962498307228088
0.36809390783309937 0.066870301961898804 0.040125288069248199
0.39408022165298462 0.068337447941303253 0.040599510073661804
0.42131313681602478 0.069487214088439941 0.04081035777926445
0.44708153605461121 0.070709288120269775 0.041293833404779434
0.47002434730529785 0.071815453469753265 0.041972585022449493
0.49284598231315613 0.072604209184646606 0.042512223124504089
0.51617592573165894 0.073120743036270142 0.042871762067079544
0.53997308015823364 0.073329567909240723 0.042986690998077393
0.56419849395751953 0.073211222887039185 0.042813539505004883
0.58890068531036377 0.07279040664434433 0.042358439415693283
0.61383837461471558 0.072130031883716583 0.041669536381959915
0.0094387363642454147 0.016915015876293182 0.0033590276725590229
0.011091038584709167 0.015142015181481838 0.0032634111121296883
0.029303161427378654 0.019425993785262108 0.0018281894735991955
0.031077338382601738 0.023718304932117462 0.0044999676756560802
0.03118516318500042 0.030435092747211456 0.016588859260082245
0.044535253196954727 0.024070922285318375 0.0048554115928709507
0.065100334584712982 0.015220476314425468 0.00027164112543687224
0.053462199866771698 0.011694269254803658 0.0014886959688737988
0.059999816119670868 0.021111160516738892 0.0022881682962179184
0.082421310245990753 0.026120349764823914 0.0026471710298210382
0.10163431614637375 0.025637935847043991 0.0039134658873081207
0.12398546934127808 0.024018872529268265 0.0053561297245323658
0.14751288294792175 0.026313120499253273 0.0075166579335927963
0.16936224699020386 0.031602311879396439 0.010558871552348137
0.18953356146812439 0.037133578211069107 0.014234001748263836
0.21098741888999939 0.044003766030073166 0.018824359402060509
0.23456014692783356 0.051366399973630905 0.023771699517965317
0.26091489195823669 0.058486711233854294 0.028708245605230331
0.28832441568374634 0.065027140080928802 0.033555325120687485
0.31248301267623901 0.070255085825920105 0.037496697157621384
0.33659964799880981 0.073892638087272644 0.039605665951967239
0.36207249760627747 0.076522849500179291 0.040578365325927734
0.38903015851974487 0.078612245619297028 0.040993310511112213
0.4155595600605011 0.080538615584373474 0.041518151760101318
0.43974852561950684 0.082389257848262787 0.042383212596178055
0.46232229471206665 0.083896905183792114 0.043155889958143234
0.48523765802383423 0.085147306323051453 0.043757371604442596
0.50869190692901611 0.086136974394321442 0.044149249792098999
0.53259545564651489 0.086811862885951996 0.044257551431655884
0.55694103240966797 0.087160505354404449 0.04405294731259346
0.58177268505096436 0.087235085666179657 0.043578594923019409
0.60651201009750366 0.087057843804359436 0.042870119214057922
0.009296501986682415 0.018291482701897621 0.0019397423602640629
0.014742996543645859 0.016560019925236702 0.0015664233360439539
0.035685673356056213 0.025929663330316544 0.0036673941649496555
0.03396790474653244 0.029612375423312187 0.0053108157590031624
0.037610862404108047 0.018908258527517319 0.0021630404517054558
0.053256608545780182 0.027062945067882538 0.0039747641421854496
0.044256266206502914 0.018017090857028961 0.0017511247424408793
0.062884919345378876 0.033461552113294601 0.0088774291798472404
0.057109840214252472 0.022511951625347137 0.0017397339688614011
0.075729221105575562 0.024585574865341187 0.001621670788154006
0.096933849155902863 0.023612484335899353 0.0028103932272642851
0.12152110040187836 0.022569781169295311 0.0041852788999676704
0.14465434849262238 0.028321266174316406 0.0068803108297288418
0.16520565748214722 0.035297628492116928 0.010214723646640778
0.1838279664516449 0.041835203766822815 0.014211403205990791
0.20443864166736603 0.049724504351615906 0.019127430394291878
0.2292240709066391 0.058101054280996323 0.024456394836306572
0.25678142905235291 0.065973825752735138 0.029695142060518265
0.28282234072685242 0.072702422738075256 0.034678097814321518
0.30677324533462524 0.077962316572666168 0.038115296512842178
0.33180695772171021 0.081985116004943848 0.039850562810897827
0.35854417085647583 0.085245303809642792 0.040677785873413086
0.38474708795547485 0.088042743504047394 0.041437983512878418
0.41056478023529053 0.090759642422199249 0.042479947209358215
0.43352586030960083 0.093139655888080597 0.043668005615472794
0.45598205924034119 0.095152586698532104 0.044561523944139481
0.47897642850875854 0.096950314939022064 0.045257102698087692
0.50246584415435791 0.098468221724033356 0.045680683106184006
0.5263831615447998 0.099651776254177094 0.045764949172735214
0.55082327127456665 0.10052900761365891 0.045528274029493332
0.57554060220718384 0.10114543884992599 0.045043256133794785
0.6001543402671814 0.10145480930805206 0.044279895722866058
0.016315776854753494 0.025441141799092293 0.002568825613707304
0.024027410894632339 0.024568293243646622 0.0031166013795882463
0.023153016343712807 0.018158372491598129 0.0022904553916305304
0.023317575454711914 0.019626801833510399 0.0019401320023462176
0.026819959282875061 0.012446039356291294 0.00072973471833392978
0.035867705941200256 0.017808666452765465 0.0014365836977958679
0.045297220349311829 0.010882520116865635 0.00023722319747321308
0.040877208113670349 0.012212394736707211 0.00021101192396599799
0.045768830925226212 0.011139501817524433 0.00027313546161167324
0.06807330995798111 0.022000400349497795 0.0006016693077981472
0.097114749252796173 0.018264461308717728 0.0013780115405097604
0.12168611586093903 0.020795883610844612 0.0030210053082555532
0.14344686269760132 0.03032362088561058 0.0060801142826676369
0.16102911531925201 0.038787852972745895 0.0099722612649202347
0.17916566133499146 0.046323161572217941 0.014060726389288902
0.20120853185653687 0.054981406778097153 0.019130265340209007
0.22740323841571808 0.064192526042461395 0.024812636896967888
0.25372397899627686 0.072413071990013123 0.030450176447629929
0.27892598509788513 0.079202473163604736 0.035175967961549759
0.30373615026473999 0.084741406142711639 0.03810032457113266
0.33026957511901855 0.089322276413440704 0.039546351879835129
0.35605615377426147 0.09311414510011673 0.040756333619356155
0.38199731707572937 0.096771217882633209 0.042118769139051437
0.40660908818244934 0.10027547180652618 0.043837837874889374
0.42880839109420776 0.10315877199172974 0.045240830630064011
0.45121026039123535 0.10576843470335007 0.046286702156066895
0.47414356470108032 0.1081511601805687 0.047059886157512665
0.49751624464988708 0.1102171465754509 0.047473199665546417
0.52138495445251465 0.11195516586303711 0.04751216247677803
0.54586392641067505 0.11343873292207718 0.047263547778129578
0.57027697563171387 0.114616759121418 0.046768490225076675
0.59499561786651611 0.1154669001698494 0.045938238501548767
0.014534657821059227 0.028858780860900879 0.0025284623261541128
0.015589069575071335 0.023225579410791397 0.0022409202065318823
0.013855551369488239 0.017339546233415604 0.0014952686615288258
0.01604059711098671 0.016385849565267563 0.00048541734577156603
0.027924478054046631 0.019870741292834282 0.00022241749684326351
0.02965686097741127 0.014926468953490257 0.00055555551080033183
0.05406656488776207 0.018654368817806244 0.0017871679738163948
0.054150495678186417 0.011942651122808456 0.0010691725183278322
0.062604717910289764 0.014837407507002354 0.00020131655037403107
0.083618596196174622 0.020768657326698303 0.00041966463322751224
0.102115698158741 0.016232883557677269 0.00050065788673236966
0.12506935000419617 0.022098487243056297 0.001530115376226604
0.1419389545917511 0.032335754483938217 0.0049264105036854744
0.1589796394109726 0.042004082351922989 0.008840927854180336
0.17766077816486359 0.049842067062854767 0.01273111067712307
0.20100592076778412 0.05888696014881134 0.018167773261666298
0.22738765180110931 0.069056972861289978 0.024442350491881371
0.25282764434814453 0.078089162707328796 0.030256293714046478
0.27854076027870178 0.085232354700565338 0.034566331654787064
0.30491340160369873 0.091145448386669159 0.037150420248508453
0.33021906018257141 0.095898367464542389 0.039085768163204193
0.35539871454238892 0.10046891123056412 0.041076906025409698
0.38117435574531555 0.10522561520338058 0.043362166732549667
0.40411707758903503 0.10928799957036972 0.045672975480556488
0.42588707804679871 0.11272051185369492 0.047224149107933044
0.44807091355323792 0.11593978106975555 0.048386823385953903
0.47071978449821472 0.11889297515153885 0.049163658171892166
0.49388071894645691 0.12153556197881699 0.049525078386068344
0.517772376537323 0.12393695116043091 0.049554213881492615
0.54213178157806396 0.12611421942710876 0.049362439662218094
0.56643122434616089 0.12791906297206879 0.048866312950849533
0.59139752388000488 0.12940545380115509 0.047997318208217621
0.014935272745788097 0.03329390287399292 0.0028250915929675102
0.015646500512957573 0.025570852681994438 0.0022796879056841135
0.013623714447021484 0.017681201919913292 0.0012330930912867188
0.018902633339166641 0.02376001700758934 0.00087146350415423512
0.021121887490153313 0.014677401632070541 0.0012388105969876051
0.025976480916142464 0.015138127841055393 0.00017881565145216882
0.027092454954981804 0.016245966777205467 0.0007293522940017283
0.050509840250015259 0.012119571678340435 0.00033653099671937525
0.069900967180728912 0.016993409022688866 0.00078395387390628457
0.089331671595573425 0.023951325565576553 0.002185785211622715
0.11362176388502121 0.029529577121138573 0.0014513785718008876
0.13223330676555634 0.032613266259431839 0.00090771965915337205
0.14414955675601959 0.036738228052854538 0.0026617208495736122
0.15942202508449554 0.044139109551906586 0.0059109940193593502
0.17832480370998383 0.051842674612998962 0.010494858026504517
0.20439298450946808 0.062884598970413208 0.01661202684044838
0.2313028872013092 0.074362754821777344 0.022789986804127693
0.25646722316741943 0.084300823509693146 0.028291197493672371
0.28317341208457947 0.091731280088424683 0.032446045428514481
0.30803805589675903 0.097115933895111084 0.035835184156894684
0.33242222666740417 0.10238854587078094 0.038891565054655075
0.35749948024749756 0.10809274017810822 0.042074833065271378
0.38220047950744629 0.11375028640031815 0.045456010848283768
0.40362155437469482 0.1181580051779747 0.048043929040431976
0.42484930157661438 0.12212890386581421 0.0496986024081707
0.44652643799781799 0.12589690089225769 0.050868723541498184
0.46879115700721741 0.12943759560585022 0.051596641540527344
0.49188438057899475 0.13279826939105988 0.051969390362501144
0.51598918437957764 0.13607379794120789 0.052139196544885635
0.54024380445480347 0.13906897604465485 0.052116964012384415
0.56487846374511719 0.1417044997215271 0.051709882915019989
0.58968120813369751 0.14386029541492462 0.050893239676952362
0.026025284081697464 0.049627579748630524 0.0048722564242780209
0.027999434620141983 0.042970053851604462 0.0042848330922424793
0.026235096156597137 0.038931921124458313 0.0027999025769531727
0.022939566522836685 0.034501131623983383 0.0010741857113316655
0.025253914296627045 0.028495894744992256 0.00088653626153245568
0.040309716016054153 0.026225043460726738 0.0027479254640638828
0.03432156890630722 0.025989359244704247 0.001435865880921483
0.044918294996023178 0.02482026070356369 0.0006535947322845459
0.0754704549908638 0.024723958224058151 0.00013093906454741955
0.094761170446872711 0.027944678440690041 0.0010966205736622214
0.1253930926322937 0.043463900685310364 0.0016872070264071226
0.14331914484500885 0.047874588519334793 0.0013041307684034109
0.15436719357967377 0.047897446900606155 0.0017980211414396763
0.1689312607049942 0.049571368843317032 0.0034935667645186186
0.19206996262073517 0.05901028960943222 0.0084978984668850899
0.21683566272258759 0.070907101035118103 0.014442261308431625
0.23887558281421661 0.082007251679897308 0.019945250824093819
0.26217526197433472 0.091686680912971497 0.024815605953335762
0.28907465934753418 0.098554037511348724 0.029974741861224174
0.31378552317619324 0.10395091027021408 0.035016473382711411
0.33792310953140259 0.11006328463554382 0.039662197232246399
0.36277204751968384 0.11684910953044891 0.044241823256015778
0.38508886098861694 0.12269038707017899 0.048463143408298492
0.40528109669685364 0.12737290561199188 0.051056902855634689
0.42570042610168457 0.13179093599319458 0.052717056125402451
0.44682797789573669 0.13612546026706696 0.053855407983064651
0.46900063753128052 0.14045293629169464 0.054652925580739975
0.49255770444869995 0.14488227665424347 0.055294115096330643
0.51709598302841187 0.14930656552314758 0.055866748094558716
0.54099506139755249 0.15311911702156067 0.056100491434335709
0.56456387042999268 0.15622323751449585 0.055728510022163391
0.58847248554229736 0.15872794389724731 0.054754454642534256
0.039531994611024857 0.07311578094959259 0.0070668691769242287
0.041650265455245972 0.067778095602989197 0.0063950805924832821
0.039483215659856796 0.061262227594852448 0.0050157895311713219
0.029189340770244598 0.041422072798013687 0.0032513083424419165
0.035923555493354797 0.048350214958190918 0.0016094120219349861
0.064646460115909576 0.054427977651357651 0.00057891156757250428
0.066617347300052643 0.052697662264108658 0.00049941352335736156
0.064959242939949036 0.043277900665998459 0.0015950005035847425
0.074981361627578735 0.038650479167699814 3.1395458790939301e-05
0.086457878351211548 0.029413500800728798 0.00013556241174228489
0.12094832211732864 0.04858442023396492 0.00041131902253255248
0.14681908488273621 0.056101448833942413 0.00097993726376444101
0.16592974960803986 0.060064341872930527 0.0023563704453408718
0.19054409861564636 0.064761519432067871 0.0035432383883744478
0.21032291650772095 0.070854626595973969 0.0073018348775804043
0.22638700902462006 0.08027513325214386 0.012689558789134026
0.24352441728115082 0.090909942984580994 0.017881002277135849
0.2651456892490387 0.099390633404254913 0.02317536249756813
0.29621127247810364 0.10775750130414963 0.0296915452927351
0.32364049553871155 0.11436930298805237 0.036583870649337769
0.3473699688911438 0.1207895502448082 0.042488884180784225
0.37082916498184204 0.12758918106555939 0.047940082848072052
0.39039149880409241 0.13288229703903198 0.052273593842983246
0.40927228331565857 0.13768696784973145 0.054843135178089142
0.42901289463043213 0.14257507026195526 0.05656316876411438
0.45012646913528442 0.14774306118488312 0.057887669652700424
0.47299793362617493 0.15329264104366302 0.059109427034854889
0.49712944030761719 0.15898792445659637 0.060352850705385208
0.51992809772491455 0.16375972330570221 0.061184931546449661
0.54236286878585815 0.16769877076148987 0.061120230704545975
0.56533807516098022 0.1710936576128006 0.060367558151483536
0.5891343355178833 0.17407539486885071 0.059143856167793274
0.054702784866094589 0.097129359841346741 0.0093043968081474304
0.058132227510213852 0.091043725609779358 0.0088647268712520599
0.055149372667074203 0.078863844275474548 0.0077505116350948811
0.04790651798248291 0.065783217549324036 0.0057453499175608158
0.050431773066520691 0.063755437731742859 0.0035889700520783663
0.063043765723705292 0.064630262553691864 0.0012272564927116036
0.081120170652866364 0.070388719439506531 0.00041137958760373294
0.083333320915699005 0.059893783181905746 0.00053921568905934691
0.090747036039829254 0.066148832440376282 0.0022262961138039827
0.10011515021324158 0.064722888171672821 0.0011861373204737902
0.12374895066022873 0.054863635450601578 0.00023722174228169024
0.15197405219078064 0.065260089933872223 0.0011684054043143988
0.17469038069248199 0.074383430182933807 0.0037183254025876522
0.1995871514081955 0.084325462579727173 0.005615514237433672
0.22264550626277924 0.09219224750995636 0.0085473638027906418
0.2382969856262207 0.098454385995864868 0.014750180765986443
0.25363537669181824 0.10549495369195938 0.020502034574747086
0.27917861938476562 0.11424811184406281 0.028193261474370956
0.31138870120048523 0.12483679503202438 0.036680575460195541
0.33835431933403015 0.13212205469608307 0.043239723891019821
0.36118754744529724 0.13737061619758606 0.048152297735214233
0.38134568929672241 0.14171424508094788 0.052895721048116684
0.39841130375862122 0.14579305052757263 0.056924480944871902
0.41657119989395142 0.15061771869659424 0.059789571911096573
0.43646112084388733 0.15615896880626678 0.06195136159658432
0.45837807655334473 0.16242451965808868 0.063813075423240662
0.48120057582855225 0.16878855228424072 0.065674342215061188
0.50264620780944824 0.17413653433322906 0.066921480000019073
0.52390766143798828 0.17878496646881104 0.067126147449016571
0.54578286409378052 0.18301160633563995 0.066616028547286987
0.56856292486190796 0.18689092993736267 0.065599411725997925
0.59233355522155762 0.19043511152267456 0.064190857112407684
0.071331508457660675 0.12230906635522842 0.011600811034440994
0.074808530509471893 0.11452358961105347 0.011162293143570423
0.075386084616184235 0.10507587343454361 0.010092292912304401
0.07992127537727356 0.099369458854198456 0.0084670325741171837
0.087046012282371521 0.091896615922451019 0.0058995280414819717
0.090346463024616241 0.091554999351501465 0.00238426448777318
0.094482049345970154 0.088219650089740753 0.00088928395416587591
0.099245816469192505 0.085509069263935089 0.0033673634752631187
0.11975391209125519 0.094647318124771118 0.0057695289142429829
0.12807410955429077 0.087828412652015686 0.0039655761793255806
0.14303287863731384 0.069522865116596222 0.0016168036963790655
0.16035707294940948 0.075290188193321228 0.00098710018210113049
0.18507830798625946 0.092096969485282898 0.0034350575879216194
0.21084900200366974 0.10684288293123245 0.0054810787551105022
0.23333671689033508 0.11561150848865509 0.010051860474050045
0.25309610366821289 0.12252931296825409 0.01907879114151001
0.27653783559799194 0.12851913273334503 0.029700009152293205
0.30225557088851929 0.1351894736289978 0.040352154523134232
0.32789632678031921 0.14319488406181335 0.048327915370464325
0.3507220447063446 0.15013892948627472 0.053308408707380295
0.37189692258834839 0.15588027238845825 0.056510705500841141
0.39058512449264526 0.15961374342441559 0.059349857270717621
0.40913370251655579 0.16341161727905273 0.062412507832050323
0.42821973562240601 0.16796229779720306 0.06586911529302597
0.44895005226135254 0.17381317913532257 0.068980202078819275
0.46999913454055786 0.17989042401313782 0.071651920676231384
0.48993551731109619 0.18525433540344238 0.073328882455825806
0.50998979806900024 0.19035932421684265 0.073878154158592224
0.5307508111000061 0.19531743228435516 0.073696747422218323
0.55252242088317871 0.20010606944561005 0.072997160255908966
0.57537007331848145 0.20464131236076355 0.071868076920509338
0.59915673732757568 0.20878873765468597 0.07032080739736557
0.087552390992641449 0.14973269402980804 0.013678919523954391
0.093605294823646545 0.14278452098369598 0.013328840956091881
0.1005333736538887 0.13726732134819031 0.012320965528488159
0.10743257403373718 0.13068695366382599 0.010632066987454891
0.10962764173746109 0.12515214085578918 0.0082556772977113724
0.11012708395719528 0.12139182537794113 0.0048199412412941456
0.10561586916446686 0.11533074826002121 0.0020089815370738506
0.11776977777481079 0.11191732436418533 0.0012313430197536945
0.13313120603561401 0.12175694853067398 0.0034191703889518976
0.15408378839492798 0.10879770666360855 0.0025495789013803005
0.16448496282100677 0.10269725322723389 0.0034212744794785976
0.17780908942222595 0.10646375268697739 0.0010378550505265594
0.20070162415504456 0.11675506830215454 0.0024916999973356724
0.22732040286064148 0.12845247983932495 0.0059227799065411091
0.2497524619102478 0.13591200113296509 0.015427662990987301
0.27355599403381348 0.14327903091907501 0.028007090091705322
0.29843708872795105 0.14842312037944794 0.041336338967084885
0.32190197706222534 0.15361648797988892 0.052552435547113419
0.34318071603775024 0.1606995016336441 0.058867741376161575
0.36264452338218689 0.16769598424434662 0.06207859143614769
0.37997078895568848 0.17273926734924316 0.064307168126106262
0.39776894450187683 0.17736060917377472 0.066740565001964569
0.41762718558311462 0.18265928328037262 0.069501742720603943
0.44017228484153748 0.18861885368824005 0.07275313138961792
0.46256458759307861 0.19392836093902588 0.076899826526641846
0.48186001181602478 0.1985897421836853 0.079944044351577759
0.50114387273788452 0.20374631881713867 0.081316098570823669
0.52109456062316895 0.20922975242137909 0.081743247807025909
0.542064368724823 0.21486286818981171 0.081563830375671387
0.56415045261383057 0.22041876614093781 0.080903030931949615
0.58720576763153076 0.22566092014312744 0.079758428037166595
