shell/ffmpeg_scripts/ff_lut3d_cube/2000sBroadcastColour_DesaturatedAndDarker.cube
# Created by: G'MIC (https://gmic.eu)
TITLE "vlcsnap-2023-11-26-00h41m50s633-2"
# LUT size
LUT_3D_SIZE 5
# Data domain
# LUT data points
DOMAIN_MIN 0.000000 0.000000 0.000000
DOMAIN_MAX 0.903226 0.903226 0.903226
0.027587639167904854 0.025888601318001747 0.0083106821402907372
0.081236563622951508 0.018993427976965904 0.0021574513521045446
0.20285794138908386 0.025515483692288399 0.014339040033519268
0.37561085820198059 0.056057039648294449 0.039395995438098907
0.54844474792480469 0.05911555141210556 0.041926249861717224
0.026025284081697464 0.049627579748630524 0.0048722564242780209
0.044918294996023178 0.02482026070356369 0.0006535947322845459
0.19206996262073517 0.05901028960943222 0.0084978984668850899
0.36277204751968384 0.11684910953044891 0.044241823256015778
0.51709598302841187 0.14930656552314758 0.055866748094558716
0.13621832430362701 0.24341997504234314 0.01990962028503418
0.16886679828166962 0.19198037683963776 0.0066414163447916508
0.28096660971641541 0.20205235481262207 0.024691475555300713
0.43500319123268127 0.24450415372848511 0.090126775205135345
0.59575510025024414 0.29080945253372192 0.11176297813653946
0.22541522979736328 0.45351618528366089 0.040257818996906281
0.33174026012420654 0.43273881077766418 0.043079584836959839
0.4365677535533905 0.47651985287666321 0.099884547293186188
0.58023941516876221 0.52635872364044189 0.15315967798233032
0.71243983507156372 0.54886168241500854 0.18702325224876404
0.23642304539680481 0.62546688318252563 0.058465030044317245
0.38065868616104126 0.60550516843795776 0.07602546364068985
0.57443112134933472 0.7333107590675354 0.12704958021640778
0.77115005254745483 0.89269816875457764 0.24922126531600952
0.84241563081741333 0.88982778787612915 0.26234555244445801
0.026783008128404617 0.030552446842193604 0.062413398176431656
0.073852136731147766 0.022833243012428284 0.048315700143575668
0.22284798324108124 0.049771152436733246 0.085230216383934021
0.39144515991210938 0.07587125152349472 0.1222301572561264
0.54394394159317017 0.076639316976070404 0.14428441226482391
0.041290152817964554 0.084491103887557983 0.064698383212089539
0.038999743759632111 0.036021292209625244 0.016456497833132744
0.17655614018440247 0.069185666739940643 0.043346643447875977
0.34569263458251953 0.11824145913124084 0.09341103583574295
0.500141441822052 0.16165751218795776 0.13984718918800354
0.13864324986934662 0.26451003551483154 0.12540781497955322
0.2045738697052002 0.22231611609458923 0.1010691374540329
0.26075616478919983 0.20060354471206665 0.10461373627185822
0.41679990291595459 0.2041151225566864 0.12608996033668518
0.56508016586303711 0.27109766006469727 0.18731164932250977
0.23410528898239136 0.4829370379447937 0.17941716313362122
0.34657731652259827 0.45160213112831116 0.17341046035289764
0.44468954205513 0.47379207611083984 0.2069510817527771
0.55692946910858154 0.48255318403244019 0.22273124754428864
0.71273154020309448 0.51917237043380737 0.2868858277797699
0.26931917667388916 0.68320256471633911 0.2106749415397644
0.43242728710174561 0.66946285963058472 0.22112233936786652
0.59238725900650024 0.72694021463394165 0.25547498464584351
0.81601554155349731 0.91535735130310059 0.35735109448432922
0.85770702362060547 0.88087946176528931 0.37389183044433594
0.053263984620571136 0.050665069371461868 0.19358205795288086
0.13368396461009979 0.063276723027229309 0.17863692343235016
0.27537718415260315 0.10859178006649017 0.23309905827045441
0.46161860227584839 0.13851648569107056 0.28793814778327942
0.61294776201248169 0.1404472291469574 0.31329047679901123
0.070951364934444427 0.13615502417087555 0.19391606748104095
0.13269650936126709 0.12572069466114044 0.1513223797082901
0.23818977177143097 0.16929797828197479 0.19406700134277344
0.42020899057388306 0.22881025075912476 0.25966891646385193
0.59206545352935791 0.25824123620986938 0.30242115259170532
0.15848478674888611 0.30856463313102722 0.27854979038238525
0.24228125810623169 0.27361977100372314 0.23869109153747559
0.25586023926734924 0.24129419028759003 0.20468826591968536
0.42318642139434814 0.28934380412101746 0.26567438244819641
0.631111741065979 0.36044019460678101 0.31792673468589783
0.23107504844665527 0.51057320833206177 0.345115065574646
0.34913697838783264 0.47094228863716125 0.31763800978660583
0.45492744445800781 0.47710320353507996 0.33044329285621643
0.56623512506484985 0.5125349760055542 0.35749560594558716
0.77285438776016235 0.51856034994125366 0.39686357975006104
0.26594957709312439 0.70916306972503662 0.38626158237457275
0.42791867256164551 0.68721741437911987 0.38370123505592346
0.60535109043121338 0.72930097579956055 0.41386452317237854
0.82442104816436768 0.87954950332641602 0.54101544618606567
0.95930612087249756 0.9186440110206604 0.55349987745285034
0.07547161728143692 0.071385942399501801 0.37623801827430725
0.19311943650245667 0.092615678906440735 0.36261638998985291
0.33419963717460632 0.13723154366016388 0.39811816811561584
0.50940364599227905 0.18282552063465118 0.46655046939849854
0.67529714107513428 0.19225311279296875 0.50804400444030762
0.097803331911563873 0.18953070044517517 0.37267199158668518
0.20257358253002167 0.19423761963844299 0.33000496029853821
0.31905487179756165 0.23827375471591949 0.35370004177093506
0.48224237561225891 0.30932056903839111 0.43072941899299622
0.64118367433547974 0.33751526474952698 0.48483878374099731
0.16398826241493225 0.35271716117858887 0.43511244654655457
0.26971477270126343 0.33049929141998291 0.3814663290977478
0.35068780183792114 0.33188655972480774 0.35942670702934265
0.48041042685508728 0.40927690267562866 0.42881441116333008
0.65603530406951904 0.48327755928039551 0.51547807455062866
0.23907238245010376 0.5510103702545166 0.52143734693527222
0.38149303197860718 0.52893728017807007 0.49534276127815247
0.48084387183189392 0.51580703258514404 0.47497230768203735
0.57791405916213989 0.57907527685165405 0.53997594118118286
0.74069386720657349 0.64612823724746704 0.60882115364074707
0.26312980055809021 0.73842275142669678 0.57218295335769653
0.43239188194274902 0.71327352523803711 0.5560118556022644
0.59095859527587891 0.72462934255599976 0.56188333034515381
0.76415526866912842 0.83335685729980469 0.63051062822341919
0.96767032146453857 0.97247081995010376 0.7569611668586731
0.079951629042625427 0.076013140380382538 0.58074980974197388
0.21779176592826843 0.094872854650020599 0.55468767881393433
0.37399473786354065 0.13616642355918884 0.5820196270942688
0.5505908727645874 0.18830247223377228 0.64097797870635986
0.72523975372314453 0.21161353588104248 0.6916356086730957
0.099964193999767303 0.2153211385011673 0.56634187698364258
0.22923636436462402 0.22300603985786438 0.52865797281265259
0.37162065505981445 0.26642528176307678 0.53559696674346924
0.5288051962852478 0.32928138971328735 0.59136849641799927
0.70280241966247559 0.37938448786735535 0.66290909051895142
0.1506945788860321 0.3822161853313446 0.60775870084762573
0.28565388917922974 0.37472888827323914 0.55645531415939331
0.39749383926391602 0.38510408997535706 0.52329832315444946
0.54812395572662354 0.46890753507614136 0.58146423101425171
0.70813137292861938 0.54789185523986816 0.66768115758895874
0.23103132843971252 0.59012597799301147 0.69550824165344238
0.38745772838592529 0.57373690605163574 0.65183913707733154
0.51710772514343262 0.5775296688079834 0.62801730632781982
0.65848112106323242 0.65093499422073364 0.67375445365905762
0.79585862159729004 0.73645550012588501 0.75181728601455688
0.25286448001861572 0.76865392923355103 0.74696522951126099
0.42774879932403564 0.74264222383499146 0.71624135971069336
0.59586268663406372 0.74587070941925049 0.71330809593200684
0.77861630916595459 0.82768118381500244 0.78292220830917358
0.97401607036590576 0.98654544353485107 0.9474223256111145
