shell/ffmpeg_scripts/ff_lut3d_cube/oldAgfa35gold.cube
# Created by: G'MIC (https://gmic.eu)
TITLE "vlcsnap-2023-11-26-00h41m50s633"
# LUT size
LUT_3D_SIZE 5
# Data domain
# LUT data points
DOMAIN_MIN 0.000000 0.000000 0.000000
DOMAIN_MAX 0.903226 0.903226 0.903226
0.0012459810823202133 0.0011104312725365162 0.0011665221536532044
0.093318969011306763 0.0019810379017144442 0.0008095715893432498
0.36484718322753906 0.026516016572713852 0.001459251856431365
0.5792773962020874 0.076425671577453613 0.0019250439945608377
0.74626898765563965 0.09918668121099472 0.002692364389076829
0.012600552290678024 0.082524813711643219 0.0032261626329272985
0.081666655838489532 0.07395423948764801 0
0.37575164437294006 0.10483521968126297 0.00047961037489585578
0.60972166061401367 0.16559953987598419 0.00013981976371724159
0.75260919332504272 0.19957059621810913 0.0033629573881626129
0.081309542059898376 0.35009732842445374 0.0074804769828915596
0.12023498862981796 0.34990304708480835 0.0020045521669089794
0.379812091588974 0.35903909802436829 0.00052028556820005178
0.63047873973846436 0.34847545623779297 0.0087921461090445518
0.83582448959350586 0.36837652325630188 0.024948790669441223
0.14976873993873596 0.58167439699172974 0.0096438219770789146
0.22194556891918182 0.58767461776733398 0.0063000624068081379
0.39960840344429016 0.66653692722320557 0.00013519800268113613
0.65783494710922241 0.65353953838348389 0.010885768570005894
0.85392606258392334 0.63676184415817261 0.033202826976776123
0.18556047976016998 0.74082094430923462 0.0092643089592456818
0.31674903631210327 0.74900519847869873 0.0065732612274587154
0.47047936916351318 0.8604622483253479 0.0018718328792601824
0.69771486520767212 0.94980955123901367 0.0015800015535205603
0.82060897350311279 0.92602604627609253 0.0075535103678703308
0.040993180125951767 0.029023068025708199 0.075658239424228668
0.12319914996623993 0.022398829460144043 0.064304977655410767
0.38307300209999084 0.068749390542507172 0.086718916893005371
0.61210030317306519 0.11098520457744598 0.087499111890792847
0.76085937023162842 0.12023601680994034 0.10127508640289307
0.057248666882514954 0.099181301891803741 0.075730308890342712
0.089283950626850128 0.072705306112766266 0.059260785579681396
0.38555347919464111 0.11305360496044159 0.044551007449626923
0.65634411573410034 0.17460961639881134 0.040424060076475143
0.7670174241065979 0.21970692276954651 0.077487587928771973
0.15777188539505005 0.34492892026901245 0.10430138558149338
0.22859521210193634 0.33973154425621033 0.059553202241659164
0.38164159655570984 0.34963440895080566 0.018482930958271027
0.71238970756530762 0.32746210694313049 0.020111590623855591
0.872822105884552 0.3658348023891449 0.079713471233844757
0.22598208487033844 0.58442205190658569 0.12493440508842468
0.34146162867546082 0.58245182037353516 0.085510767996311188
0.43274161219596863 0.64970386028289795 0.013869495131075382
0.69658136367797852 0.6309669017791748 0.0081681115552783012
0.93739765882492065 0.62423157691955566 0.075479753315448761
0.25135913491249084 0.77379977703094482 0.13764385879039764
0.40308696031570435 0.77918601036071777 0.10530045628547668
0.53967767953872681 0.84510350227355957 0.057833593338727951
0.76156729459762573 0.97318118810653687 0.0038453044835478067
0.88525468111038208 0.91091358661651611 0.080266982316970825
0.1101401075720787 0.076030045747756958 0.23660725355148315
0.21461485326290131 0.098134063184261322 0.23959589004516602
0.39514341950416565 0.14836233854293823 0.28009679913520813
0.6232265830039978 0.18212640285491943 0.28585073351860046
0.7873387336730957 0.18255685269832611 0.29022246599197388
0.14400917291641235 0.1723058670759201 0.25068563222885132
0.23631450533866882 0.17740336060523987 0.23502743244171143
0.3901994526386261 0.22339795529842377 0.27506798505783081
0.62613373994827271 0.28182432055473328 0.26230847835540771
0.81056094169616699 0.31721052527427673 0.2637142539024353
0.23212683200836182 0.36272630095481873 0.30773264169692993
0.34364116191864014 0.34625080227851868 0.28802940249443054
0.40413019061088562 0.32867547869682312 0.28648683428764343
0.6930660605430603 0.35805749893188477 0.26030293107032776
0.91482466459274292 0.44860365986824036 0.24607877433300018
0.28204804658889771 0.58184456825256348 0.32090482115745544
0.42230477929115295 0.56790214776992798 0.29565528035163879
0.5656355619430542 0.60793769359588623 0.28757399320602417
0.74157059192657471 0.61945551633834839 0.25541496276855469
0.99808645248413086 0.63941973447799683 0.26746368408203125
0.29138848185539246 0.77445131540298462 0.32539927959442139
0.45627030730247498 0.76737773418426514 0.29367634654045105
0.63270533084869385 0.81538760662078857 0.2633708119392395
0.77498221397399902 0.93715274333953857 0.28024166822433472
0.99808955192565918 0.95072823762893677 0.2276948094367981
0.14669169485569 0.10584843903779984 0.42658364772796631
0.28309518098831177 0.13600695133209229 0.42344486713409424
0.44517329335212708 0.18105238676071167 0.45246997475624084
0.63212323188781738 0.21682950854301453 0.49468979239463806
0.79435724020004272 0.22198598086833954 0.51543354988098145
0.18337704241275787 0.23191291093826294 0.43114066123962402
0.31159299612045288 0.24780088663101196 0.4013073742389679
0.45706543326377869 0.2956642210483551 0.42185240983963013
0.64222884178161621 0.34585455060005188 0.46638378500938416
0.78949016332626343 0.37109974026679993 0.49115219712257385
0.25601053237915039 0.39856430888175964 0.48318454623222351
0.38640421628952026 0.38798871636390686 0.4442596435546875
0.50973927974700928 0.39707064628601074 0.43047374486923218
0.68571704626083374 0.45770794153213501 0.4855215847492218
0.83896249532699585 0.51648122072219849 0.49964413046836853
0.31117430329322815 0.59298640489578247 0.53617477416992188
0.47700908780097961 0.57869434356689453 0.51287752389907837
0.60808265209197998 0.5736839771270752 0.50246375799179077
0.73096483945846558 0.63427627086639404 0.55869215726852417
0.96252447366714478 0.67990660667419434 0.55367976427078247
0.31656932830810547 0.77759021520614624 0.55735588073730469
0.50038200616836548 0.76099568605422974 0.53755104541778564
0.66318035125732422 0.77460384368896484 0.53343307971954346
0.80746525526046753 0.85276716947555542 0.55871611833572388
0.99999994039535522 0.96872419118881226 0.5672566294670105
0.14797370135784149 0.10888401418924332 0.62546557188034058
0.29920804500579834 0.13366557657718658 0.60493570566177368
0.47086766362190247 0.17545017600059509 0.6276211142539978
0.65286904573440552 0.21855251491069794 0.67242157459259033
0.81807351112365723 0.23452652990818024 0.7057948112487793
0.17834323644638062 0.25337356328964233 0.61488181352615356
0.32298177480697632 0.267722487449646 0.58345949649810791
0.49162176251411438 0.315174400806427 0.59151828289031982
0.65872842073440552 0.37090259790420532 0.63550442457199097
0.81736135482788086 0.4058360755443573 0.67742753028869629
0.23615805804729462 0.42158770561218262 0.64972227811813354
0.39170587062835693 0.42089134454727173 0.60476881265640259
0.5417291522026062 0.44525676965713501 0.58916419744491577
0.69844555854797363 0.51434123516082764 0.63085770606994629
0.8454015851020813 0.57620120048522949 0.68974757194519043
0.30235496163368225 0.62135660648345947 0.713032066822052
0.47767245769500732 0.61355161666870117 0.67486357688903809
0.62252742052078247 0.62258040904998779 0.65269124507904053
0.78049474954605103 0.67744523286819458 0.69859492778778076
0.93723577260971069 0.74540817737579346 0.76615273952484131
0.30665487051010132 0.79409986734390259 0.74941796064376831
0.4929821789264679 0.77337247133255005 0.71857649087905884
0.66739732027053833 0.77607756853103638 0.70760679244995117
0.83685952425003052 0.83687639236450195 0.75238007307052612
0.99999994039535522 0.97359341382980347 0.87525910139083862
