shell/ffmpeg_scripts/ff_lut3d_cube/oldAgfa35gold.cube
# Created by: G'MIC (https://gmic.eu)
TITLE "vlcsnap-2023-11-26-00h41m50s633"
# LUT size
LUT_3D_SIZE 32
# Data domain
DOMAIN_MIN 0.0 0.0 0.0
DOMAIN_MAX 1.0 1.0 1.0
# LUT data points
0.0012459810823202133 0.0011104312725365162 0.0011665221536532044
0.001880848198197782 0.00070624437648802996 0.00074489251710474491
0.0015157362213358283 0.00032822016510181129 0.00039804982952773571
0.0032411320134997368 0.00018888211343437433 0.00018392477068118751
0.011077316477894783 0.00034649725421331823 0.00038021398358978331
0.031079955399036407 0.0007437004242092371 0.00064535846468061209
0.054413110017776489 0.0010603042319417 0.00078200607094913721
0.093318969011306763 0.0019810379017144442 0.0008095715893432498
0.13721761107444763 0.0032445359975099564 0.00089448993094265461
0.17912045121192932 0.0048234201967716217 0.00098915223497897387
0.21855881810188293 0.0074685392901301384 0.0010717035038396716
0.25669011473655701 0.011056285351514816 0.0011770043056458235
0.29478806257247925 0.014935064129531384 0.0013106934493407607
0.33094412088394165 0.019857315346598625 0.0014063927810639143
0.36484718322753906 0.026516016572713852 0.001459251856431365
0.39754036068916321 0.03452615812420845 0.0014987324830144644
0.42987906932830811 0.042915754020214081 0.0015583517961204052
0.46208414435386658 0.051006268709897995 0.0016374302795156837
0.49420833587646484 0.058424476534128189 0.001738938270136714
0.52588880062103271 0.065176315605640411 0.001841882592998445
0.55358123779296875 0.071064881980419159 0.0018888829508796334
0.5792773962020874 0.076425671577453613 0.0019250439945608377
0.60496312379837036 0.081688158214092255 0.0019700911361724138
0.63117265701293945 0.086749166250228882 0.0020389126148074865
0.65790313482284546 0.091518677771091461 0.0021350409369915724
0.68222445249557495 0.095565341413021088 0.0022365257609635592
0.70413267612457275 0.097836218774318695 0.0023696173448115587
0.72541666030883789 0.098993897438049316 0.0025250180624425411
0.74626898765563965 0.09918668121099472 0.002692364389076829
0.76675224304199219 0.098509959876537323 0.0028611808083951473
0.78700053691864014 0.097095966339111328 0.0030250996351242065
0.80717730522155762 0.095110788941383362 0.0031801245640963316
0.0011222347384318709 0.0030719726346433163 0.0010381231550127268
0.0020325228106230497 0.0019508050754666328 0.00064929178915917873
0.0019787023775279522 0.0011315142037346959 0.00036771854502148926
0.0018600192852318287 0.00074690842302516103 0.00019402996986173093
0.0057912222109735012 0.00066678295843303204 0.00020512964692898095
0.023086860775947571 0.0015790846664458513 0.00040461600292474031
0.046067826449871063 0.0017908078152686357 0.00047698128037154675
0.089697942137718201 0.0033970058429986238 0.00053320563165470958
0.13396069407463074 0.0051970952190458775 0.00064338778611272573
0.17605084180831909 0.0073454263620078564 0.00074092479189857841
0.2157566249370575 0.010766973719000816 0.00083697191439568996
0.25473341345787048 0.01496569998562336 0.00097863562405109406
0.29322421550750732 0.019165974110364914 0.0010979826329275966
0.32878163456916809 0.025189127773046494 0.0011882747057825327
0.36283990740776062 0.0326969213783741 0.0012358343228697777
0.39567461609840393 0.041681129485368729 0.0012874078238382936
0.42818397283554077 0.05113711953163147 0.001360706053674221
0.46050536632537842 0.060185834765434265 0.0014442589599639177
0.49343785643577576 0.068435736000537872 0.0015584363136440516
0.52485817670822144 0.075836792588233948 0.0016292666550725698
0.55183380842208862 0.082032300531864166 0.0016761703882366419
0.57749217748641968 0.088013984262943268 0.0017197511624544859
0.60342884063720703 0.094063282012939453 0.0017712414264678955
0.6303139328956604 0.10017373412847519 0.0018391548655927181
0.65677857398986816 0.10601802915334702 0.0019269220065325499
0.68004262447357178 0.11018200218677521 0.0020422327797859907
0.70163983106613159 0.11272364854812622 0.0021915684919804335
0.72271323204040527 0.11419723927974701 0.0023641360457986593
0.74335145950317383 0.11469525098800659 0.0025481013581156731
0.76361948251724243 0.11431603878736496 0.0027324107941240072
0.78370553255081177 0.11321955174207687 0.0029141900595277548
0.80366295576095581 0.11162707954645157 0.0030825801659375429
0.001058077672496438 0.0045731780119240284 0.00094441440887749195
0.001262619043700397 0.0019809296354651451 0.00053937581833451986
0.0015271363081410527 0.0016594036715105176 0.00033727343543432653
0.00052763044368475676 0.00034822823363356292 7.6789954619016498e-05
0.0013857258018106222 0.00054105918388813734 4.0317107050213963e-05
0.0091044632717967033 0.0010918802581727505 9.5058385340962559e-05
0.042346350848674774 0.0011726985685527325 0.00015000812709331512
0.088282838463783264 0.0030457570683211088 0.00025917435414157808
0.13097831606864929 0.0050810272805392742 0.00038080831291154027
0.17412610352039337 0.0077066267840564251 0.00047760576126165688
0.21411561965942383 0.012108813971281052 0.00062500766944140196
0.2545432448387146 0.016170209273695946 0.00077191484160721302
0.29212316870689392 0.021320441737771034 0.00085825991118326783
0.32724609971046448 0.02879193052649498 0.00096474902238696814
0.36160534620285034 0.037674587219953537 0.0010150099406018853
0.39461547136306763 0.048214029520750046 0.0010788406943902373
0.4272596538066864 0.058924991637468338 0.0011525334557518363
0.46049788594245911 0.068875543773174286 0.0012495398987084627
0.49452435970306396 0.077877238392829895 0.0013438395690172911
0.52465647459030151 0.085342139005661011 0.0013845121720805764
0.55112427473068237 0.092118963599205017 0.0014282809570431709
0.57719743251800537 0.099168360233306885 0.0014720502076670527
0.60415631532669067 0.10662951320409775 0.0015164186479523778
0.63147228956222534 0.11392505466938019 0.0015860265120863914
0.65700757503509521 0.12004443258047104 0.0016903422074392438
0.67938089370727539 0.12422775477170944 0.0018299245275557041
0.70065802335739136 0.12708102166652679 0.0020047109574079514
0.7214241623878479 0.12886367738246918 0.0022029911633580923
0.7417147159576416 0.12964163720607758 0.0024107526987791061
0.76166027784347534 0.12954957783222198 0.002619132399559021
0.78152590990066528 0.1288139820098877 0.002828383119776845
0.80111771821975708 0.12763902544975281 0.0030082177836447954
0.0012832118663936853 0.010827817022800446 0.00088526675244793296
0.0019931192509829998 0.0071039521135389805 0.0006128393579274416
0.0012166053056716919 0.0023218030110001564 0.00030542269814759493
0.00097410258604213595 0.0011075435904785991 9.8039359727408737e-05
0.00072019605431705713 0.00045853725168853998 7.6633092248812318e-05
0.0057347617112100124 0.00096310919616371393 0.00011578015983104706
0.04115527868270874 0.0011967098107561469 0.00011512720811879262
0.088120527565479279 0.0021129080560058355 0.00017215139814652503
0.12979304790496826 0.0036198152229189873 0.00020444901019800454
0.17249731719493866 0.0067469472996890545 0.00028520100750029087
0.21427154541015625 0.011148967780172825 0.00046663402463309467
0.255572110414505 0.014682037755846977 0.00053013261640444398
0.29127517342567444 0.021848328411579132 0.00064118450973182917
0.32595634460449219 0.031687993556261063 0.00076004257425665855
0.36089780926704407 0.042969971895217896 0.00082752358866855502
0.3943655788898468 0.05501122772693634 0.0008879198576323688
0.42797696590423584 0.06682971864938736 0.00097012735204771161
0.46273511648178101 0.077652305364608765 0.001062201801687479
0.49641808867454529 0.086530715227127075 0.0011004293337464333
0.52530694007873535 0.09416043758392334 0.0011201974702998996
0.55213195085525513 0.10219023376703262 0.0011524469591677189
0.57946562767028809 0.11097614467144012 0.0011831530136987567
0.60698062181472778 0.11966568231582642 0.0012173876166343689
0.63435930013656616 0.12735812366008759 0.001313107437454164
0.65872049331665039 0.13345050811767578 0.0014353595906868577
0.68040251731872559 0.13779953122138977 0.0016094446182250977
0.70126724243164062 0.14094839990139008 0.0018213358707726002
0.72153693437576294 0.14298126101493835 0.0020550752524286509
0.74130147695541382 0.14399532973766327 0.0022954626474529505
0.76086294651031494 0.14421416819095612 0.0025410111993551254
0.78034663200378418 0.1438986212015152 0.0027792449109256268
0.79955393075942993 0.14313395321369171 0.0029708098154515028
0.0016828707884997129 0.021709626540541649 0.0011202183086425066
0.0029538979288190603 0.015517488121986389 0.00083885603817179799
0.0021823099814355373 0.0077040293253958225 0.00047736021224409342
0.0015416481764987111 0.0030168169178068638 0.00020979555847588927
0.00029978176462464035 0.00030765813426114619 3.8542864785995334e-05
0.0057897916994988918 0.00033431765041314065 -1.9721646191128706e-11
0.042042188346385956 0.00062514323508366942 3.8510464946739376e-05
0.086856745183467865 0.00096210249466821551 3.8562506233574823e-05
0.12663848698139191 0.0020007907878607512 7.7162381785456091e-05
0.17081673443317413 0.0038447340484708548 0.00012409752525854856
0.21732343733310699 0.0073573058471083641 0.00027144973864778876
0.25665256381034851 0.011348599568009377 0.00031551043502986431
0.2900615930557251 0.022137483581900597 0.00044385303044691682
0.3254641592502594 0.037159334868192673 0.00058093777624890208
0.36131042242050171 0.051371872425079346 0.0006870349170640111
0.39579546451568604 0.065061010420322418 0.00075838057091459632
0.43080902099609375 0.077139720320701599 0.00083635241026058793
0.46605592966079712 0.086696945130825043 0.00086594757158309221
0.49863845109939575 0.094929531216621399 0.00086746143642812967
0.52767813205718994 0.10367652028799057 0.00085957691771909595
0.55590415000915527 0.1136801540851593 0.00087255582911893725
0.58390539884567261 0.12359257787466049 0.0008686293731443584
0.61186510324478149 0.13261821866035461 0.00092191837029531598
0.63904398679733276 0.14042952656745911 0.001016013091430068
0.66210108995437622 0.14640763401985168 0.0011761063942685723
0.68314677476882935 0.1509501188993454 0.001399742322973907
0.7033507227897644 0.15428896248340607 0.0016619056696072221
0.72286587953567505 0.15648645162582397 0.0019420211901888251
0.74199169874191284 0.15774476528167725 0.0022297322284430265
0.76114994287490845 0.15837214887142181 0.0025293170474469662
0.78011947870254517 0.15853670239448547 0.0028001544997096062
0.79908090829849243 0.15823931992053986 0.0030129039660096169
0.0019649446476250887 0.034485060721635818 0.0012774891220033169
0.0032651391811668873 0.028696613386273384 0.00092173408484086394
0.0032363194040954113 0.021960098296403885 0.00061146647203713655
0.0026668859645724297 0.012783816084265709 0.00031106578535400331
0.00093174946960061789 0.0043288562446832657 9.1038724349346012e-05
0.0045261434279382229 0.0024673198349773884 0
0.040384545922279358 0.0027556808199733496 -8.0990173335210303e-13
0.086480654776096344 0.0031645603012293577 3.8542806578334421e-05
0.12783302366733551 0.0070303068496286869 3.856571129290387e-05
0.17586956918239594 0.011445404961705208 0.00018592231208458543
0.22069758176803589 0.0085504371672868729 0.00018349038145970553
0.256643146276474 0.011694286018610001 0.0001835071889217943
0.29157349467277527 0.030058173462748528 0.00031903258059173822
0.32801869511604309 0.050577562302350998 0.0005108210607431829
0.36363056302070618 0.06735527515411377 0.00060506374575197697
0.39856696128845215 0.079734198749065399 0.00063821423100307584
0.43440553545951843 0.088976755738258362 0.00068883568746969104
0.46948543190956116 0.096795924007892609 0.00069681246532127261
0.50223380327224731 0.10550127923488617 0.00067672436125576496
0.53275966644287109 0.11597398668527603 0.00064635270973667502
0.56186658143997192 0.12659144401550293 0.00059624551795423031
0.59032177925109863 0.13658209145069122 0.00057772657601162791
0.61916655302047729 0.14572063088417053 0.00062200782122090459
0.64534997940063477 0.15321961045265198 0.00072291638934984803
0.6671869158744812 0.15906442701816559 0.0009433907107450068
0.68737894296646118 0.16365101933479309 0.0012341357069090009
0.70658600330352783 0.16704019904136658 0.0015632505528628826
0.72519874572753906 0.16940079629421234 0.0019104297971352935
0.74378114938735962 0.17105668783187866 0.0022790865041315556
0.7625352144241333 0.17227658629417419 0.0026556206867098808
0.78112113475799561 0.17303290963172913 0.002979934448376298
0.79997777938842773 0.17332917451858521 0.0032316416036337614
0.0051165251061320305 0.051891803741455078 0.0019877082668244839
0.0057416544295847416 0.044940639287233353 0.0015334975905716419
0.0032373280264437199 0.037266425788402557 0.00082516291877254844
0.003570066299289465 0.039911728352308273 0.00066652445821091533
0.0015587439993396401 0.037872966378927231 0.00029549963073804975
0.0056579685769975185 0.035242486745119095 4.1206491005141288e-05
0.041084479540586472 0.035713750869035721 0
0.081299804151058197 0.037608884274959564 1.1526597037958553e-10
0.12988445162773132 0.038120772689580917 7.7035751019138843e-05
0.17611986398696899 0.035179968923330307 0.00013108778512105346
0.21818184852600098 0.039235789328813553 0.0002802858070936054
0.25783821940422058 0.041412752121686935 0.00028496852610260248
0.29768684506416321 0.052757568657398224 0.00041294135735370219
0.33358502388000488 0.070399463176727295 0.00051235489081591368
0.36789056658744812 0.08379402756690979 0.00050115236081182957
0.40320616960525513 0.094573535025119781 0.00051990471547469497
0.43885859847068787 0.10417070984840393 0.00057778565678745508
0.47382330894470215 0.11240448802709579 0.00059222866548225284
0.50786226987838745 0.12137200683355331 0.00056797044817358255
0.53969156742095947 0.13070863485336304 0.00045938300900161266
0.56947678327560425 0.14063595235347748 0.00036333480966277421
0.59905225038528442 0.15043532848358154 0.00032353636925108731
0.62850791215896606 0.15911556780338287 0.00033924335730262101
0.65299397706985474 0.16592992842197418 0.0004893786390312016
0.67362940311431885 0.17147170007228851 0.00079426151933148503
0.69261658191680908 0.17590007185935974 0.0011804114328697324
0.71070635318756104 0.1793501079082489 0.0016126473201438785
0.72863024473190308 0.18211132287979126 0.0020798344630748034
0.74700450897216797 0.18452957272529602 0.0025855686981230974
0.76550132036209106 0.18662936985492706 0.0030785659328103065
0.78408128023147583 0.18826957046985626 0.0035179685801267624
0.80270081758499146 0.18928387761116028 0.0038406981620937586
0.012600552290678024 0.082524813711643219 0.0032261626329272985
0.013253508135676384 0.07670968770980835 0.0028005011845380068
0.0092362873256206512 0.073844730854034424 0.0019046674715355039
0.0036024437285959721 0.073997735977172852 0.00079364777775481343
0.0022871675901114941 0.072692893445491791 0.00044884294038638473
0.0043997205793857574 0.074370160698890686 3.7719724787166342e-05
0.039829988032579422 0.074607841670513153 0
0.081666655838489532 0.07395423948764801 0
0.12764224410057068 0.073499336838722229 -4.8085745163461979e-08
0.17213593423366547 0.07524406909942627 0.00018462857406120747
0.21452364325523376 0.081307500600814819 0.00032027580891735852
0.25729739665985107 0.086101680994033813 0.00038222083821892738
0.30176174640655518 0.089314103126525879 0.00052713544573634863
0.34096404910087585 0.094269335269927979 0.00052381039131432772
0.37575164437294006 0.10483521968126297 0.00047961037489585578
0.40984711050987244 0.11681001633405685 0.00047837421880103648
0.44346389174461365 0.12779290974140167 0.00050883757648989558
0.47784385085105896 0.13666388392448425 0.00054233218543231487
0.51408475637435913 0.14139285683631897 0.00047674082452431321
0.54752522706985474 0.14776557683944702 0.00032178795663639903
0.57863008975982666 0.15664689242839813 0.00019848330703098327
0.60972166061401367 0.16559953987598419 0.00013981976371724159
0.63869881629943848 0.17299003899097443 0.0001534110342618078
0.66140103340148926 0.17883236706256866 0.00041384869837202132
0.68077594041824341 0.18382306396961212 0.00085275486344471574
0.69861656427383423 0.18814928829669952 0.0013971432344987988
0.71604263782501221 0.1920386403799057 0.0020088674500584602
0.73397916555404663 0.19580814242362976 0.0026720743626356125
0.75260919332504272 0.19957059621810913 0.0033629573881626129
0.77086073160171509 0.20271703600883484 0.0040289429016411304
0.7886541485786438 0.20490764081478119 0.0045761726796627045
0.80642300844192505 0.2061987966299057 0.0048994063399732113
0.019537854939699173 0.12016104161739349 0.0041192308999598026
0.020295843482017517 0.11619734764099121 0.0036668612156063318
0.016949845477938652 0.11376066505908966 0.0028259661048650742
0.011394069530069828 0.11473508179187775 0.0018558334559202194
0.0060578943230211735 0.11610265076160431 0.00088086957111954689
0.0076451920904219151 0.11548825353384018 0.00039178674342110753
0.040037017315626144 0.11403387784957886 3.6749435821548104e-05
0.082430027425289154 0.11347241699695587 0
0.12284209579229355 0.11504402011632919 -7.4375967606954418e-09
0.16416926681995392 0.11106349527835846 7.7008437074255198e-05
0.21005627512931824 0.12090250849723816 0.00018456095131114125
0.25610539317131042 0.12391382455825806 0.00028037041192874312
0.30268299579620361 0.12689852714538574 0.00048219846212305129
0.34653878211975098 0.12848508358001709 0.00054306210950016975
0.38187587261199951 0.13334913551807404 0.00046767186722718179
0.41459140181541443 0.1435215175151825 0.00044531811727210879
0.44752809405326843 0.1549992710351944 0.00047312740935012698
0.48190405964851379 0.16256622970104218 0.00044718105345964432
0.51939660310745239 0.16532483696937561 0.00039905839366838336
0.55543661117553711 0.16872140765190125 0.00028071802807971835
0.58806407451629639 0.17568382620811462 0.00017705274512991309
0.620383620262146 0.18287312984466553 0.0001176574151031673
0.6479642391204834 0.18813475966453552 0.00024303433019667864
0.66961538791656494 0.19264715909957886 0.00070417742244899273
0.68841099739074707 0.19717000424861908 0.0013720637653023005
0.70604622364044189 0.20192767679691315 0.0021560718305408955
0.72388511896133423 0.2070661187171936 0.002986314008012414
0.74246817827224731 0.2124616801738739 0.0038321856409311295
0.76026922464370728 0.21689379215240479 0.0047005065716803074
0.77720576524734497 0.22002819180488586 0.0054858401417732239
0.7940710186958313 0.22224369645118713 0.0060585616156458855
0.81136119365692139 0.22382847964763641 0.0063652452081441879
0.027043171226978302 0.15738864243030548 0.0048650475218892097
0.029109751805663109 0.15395617485046387 0.0045219319872558117
0.027243884280323982 0.15332771837711334 0.0039449762552976608
0.020986953750252724 0.15474621951580048 0.0029590071644634008
0.014073746278882027 0.15259592235088348 0.0018786798464134336
0.0089207952842116356 0.15382254123687744 0.00062873057322576642
0.037998545914888382 0.15247231721878052 0.00023109946050681174
0.080498360097408295 0.15311272442340851 0
0.1213793084025383 0.15538579225540161 3.8527352444361895e-05
0.16636380553245544 0.15999519824981689 7.7077194873709232e-05
0.21011137962341309 0.15767213702201843 0.00011485646246001124
0.25508210062980652 0.15966330468654633 0.00019684387370944023
0.30264392495155334 0.16299214959144592 0.00035497464705258608
0.34352579712867737 0.16699066758155823 0.00049049151130020618
0.38099342584609985 0.1702100932598114 0.00051275239093229175
0.41761332750320435 0.17657707631587982 0.00051677419105544686
0.45253953337669373 0.18460826575756073 0.00049746705917641521
0.48752337694168091 0.19018387794494629 0.00041627581231296062
0.52386081218719482 0.19436676800251007 0.00036847885348834097
0.55934399366378784 0.19780692458152771 0.00031640109955333173
0.59361588954925537 0.20156598091125488 0.00033378854277543724
0.62680500745773315 0.20431458950042725 0.00044537411304190755
0.65410542488098145 0.20637264847755432 0.00091768411220982671
0.67688620090484619 0.20957131683826447 0.0016947611002251506
0.69709235429763794 0.21405200660228729 0.0026213843375444412
0.71609801054000854 0.21980445086956024 0.0035607086028903723
0.73495203256607056 0.22611875832080841 0.0044845342636108398
0.75240951776504517 0.2313275933265686 0.0055243130773305893
0.76861351728439331 0.23523060977458954 0.006567798089236021
0.78457081317901611 0.23828814923763275 0.0074361348524689674
0.80087631940841675 0.2407509982585907 0.0080339927226305008
0.81784075498580933 0.24274694919586182 0.0083249099552631378
0.035441596060991287 0.19488583505153656 0.005571889691054821
0.038008987903594971 0.19289082288742065 0.0052992375567555428
0.036935597658157349 0.19263279438018799 0.0047651645727455616
0.032846853137016296 0.19162283837795258 0.004033324308693409
0.023889265954494476 0.19039027392864227 0.0029105280991643667
0.014105581678450108 0.1911570131778717 0.0012153532588854432
0.039067704230546951 0.19153314828872681 0.00041550450259819627
0.080135643482208252 0.1924215704202652 8.03525181254372e-05
0.12097299098968506 0.19351521134376526 0
0.16532455384731293 0.19592975080013275 3.8469908758997917e-05
0.21164031326770782 0.19504992663860321 7.6450043707154691e-05
0.2577674388885498 0.19605244696140289 0.00015924139006529003
0.29947581887245178 0.20008668303489685 0.00026262633036822081
0.33852708339691162 0.20371001958847046 0.0003910620289389044
0.37679845094680786 0.20748846232891083 0.00044019627966918051
0.41667619347572327 0.21351484954357147 0.00052532483823597431
0.45671820640563965 0.21722853183746338 0.00054754805751144886
0.49297201633453369 0.2199288010597229 0.00040957360761240125
0.52744650840759277 0.22356154024600983 0.00028511072741821408
0.5606532096862793 0.22744515538215637 0.00031130900606513023
0.59326422214508057 0.23026406764984131 0.00054795789765194058
0.62431514263153076 0.23096279799938202 0.001130976714193821
0.6537017822265625 0.23120987415313721 0.0021407303865998983
0.68163442611694336 0.23259676992893219 0.0033407704904675484
0.70630532503128052 0.2365824431180954 0.0043795113451778889
0.7281029224395752 0.24207904934883118 0.0053472197614610195
0.74664157629013062 0.24717316031455994 0.0065571502782404423
0.76284170150756836 0.25153675675392151 0.007874523289501667
0.77824932336807251 0.25532200932502747 0.0090854102745652199
0.79379326105117798 0.2586665153503418 0.01004947442561388
0.80989933013916016 0.26161062717437744 0.010687048546969891
0.8266606330871582 0.26408061385154724 0.010958129540085793
0.043989319354295731 0.23382385075092316 0.0061607272364199162
0.04768342524766922 0.23193003237247467 0.0059172883629798889
0.047834359109401703 0.2308218777179718 0.0054415920749306679
0.044362392276525497 0.22942069172859192 0.0047191455960273743
0.03830447793006897 0.22920770943164825 0.003694192273542285
0.029868585988879204 0.23153501749038696 0.0022315310779958963
0.036208242177963257 0.23470874130725861 0.00071218295488506556
0.076858840882778168 0.23499083518981934 6.9528556196019053e-05
0.11809373646974564 0.2338956743478775 0
0.16497059166431427 0.23157155513763428 3.8530924939550459e-05
0.20804408192634583 0.23574216663837433 0.00011484597780508921
0.25453579425811768 0.23842565715312958 0.00022361759329214692
0.29667964577674866 0.23977093398571014 0.00025957918842323124
0.33630239963531494 0.23760870099067688 0.00029675423866137862
0.37724447250366211 0.24063549935817719 0.00037298357347026467
0.41997215151786804 0.24610207974910736 0.00052221154328435659
0.46146881580352783 0.2476351410150528 0.00054430053569376469
0.49794870615005493 0.24853411316871643 0.00040717810043133795
0.53052258491516113 0.25161147117614746 0.00040391774382442236
0.56156331300735474 0.25483590364456177 0.00063610245706513524
0.59140866994857788 0.25663214921951294 0.0011938055977225304
0.62029683589935303 0.25782078504562378 0.0022769332863390446
0.64985513687133789 0.25916096568107605 0.0037229445297271013
0.68174839019775391 0.26088687777519226 0.0052555268630385399
0.71485012769699097 0.26286610960960388 0.0065612336620688438
0.73969095945358276 0.26629814505577087 0.0079323053359985352
0.75857192277908325 0.27047288417816162 0.0095016108825802803
