shell/ffmpeg_scripts/linux/selective-colour-lut-keep-only-red-002.cube
# Created by: G'MIC (https://gmic.eu)
TITLE "output"
# LUT size
LUT_3D_SIZE 5
# Data domain
# LUT data points
DOMAIN_MIN 0.000000 0.000000 0.000000
DOMAIN_MAX 0.903226 0.903226 0.903226
0.030067583546042442 0.015134274028241634 0.014492892660200596
0.2254132479429245 0.013851044699549675 0.017340626567602158
0.45121100544929504 0.01166948676109314 0.022710764780640602
0.67170333862304688 0.016767943277955055 0.074680633842945099
0.88775187730789185 0.028942795470356941 0.10015160590410233
0.15366260707378387 0.19054542481899261 0.10057780891656876
0.24794414639472961 0.21728581190109253 0.1041940450668335
0.35835781693458557 0.27107837796211243 0.22484476864337921
0.63438600301742554 0.25747621059417725 0.13556930422782898
0.84176796674728394 0.24495683610439301 0.12725752592086792
0.21577593684196472 0.3614688515663147 0.12256820499897003
0.32903733849525452 0.37541729211807251 0.12881551682949066
0.46860000491142273 0.41464510560035706 0.14840540289878845
0.65504562854766846 0.45149421691894531 0.17820823192596436
0.89034557342529297 0.45700228214263916 0.084935121238231659
0.22547081112861633 0.52313488721847534 0.11775365471839905
0.35704886913299561 0.51300507783889771 0.14484475553035736
0.50950980186462402 0.53763020038604736 0.18009252846240997
0.69274580478668213 0.58196854591369629 0.20470255613327026
0.89835315942764282 0.62446397542953491 0.15540745854377747
0.20379415154457092 0.68537533283233643 0.11020436882972717
0.35420674085617065 0.66409981250762939 0.13668537139892578
0.51679617166519165 0.6702723503112793 0.17121194303035736
0.71025198698043823 0.71695083379745483 0.19095511734485626
0.89698022603988647 0.76925992965698242 0.19944298267364502
0.09729013592004776 0.024298852309584618 0.21697975695133209
0.22531305253505707 0.060699082911014557 0.23102556169033051
0.44586047530174255 0.083764076232910156 0.21879760921001434
0.67044740915298462 0.062095001339912415 0.22596316039562225
0.88371241092681885 0.085902199149131775 0.22040849924087524
0.17319987714290619 0.20743855834007263 0.21008346974849701
0.22953020036220551 0.22862839698791504 0.22899575531482697
0.31080791354179382 0.29364368319511414 0.29408356547355652
0.57915538549423218 0.29733821749687195 0.29783529043197632
0.88555639982223511 0.23151403665542603 0.23945194482803345
0.24009999632835388 0.37824186682701111 0.23556855320930481
0.35415875911712646 0.4006328284740448 0.2257796972990036
0.45236515998840332 0.45287579298019409 0.23219770193099976
0.52351808547973633 0.50048893690109253 0.48581951856613159
0.85504311323165894 0.47740533947944641 0.29836460947990417
0.25519704818725586 0.54408472776412964 0.23668414354324341
0.38900867104530334 0.53160750865936279 0.24635052680969238
0.50434988737106323 0.55202138423919678 0.27809426188468933
0.68834340572357178 0.61143684387207031 0.29160243272781372
0.89416670799255371 0.66352850198745728 0.25688615441322327
0.23176226019859314 0.69551682472229004 0.24554581940174103
0.37838715314865112 0.66518843173980713 0.25698018074035645
0.52158290147781372 0.66204303503036499 0.29302981495857239
0.71825301647186279 0.72712528705596924 0.3106040358543396
0.89244586229324341 0.80317282676696777 0.31618073582649231
0.14201037585735321 0.0548841692507267 0.34651252627372742
0.2358834445476532 0.08633076399564743 0.36586084961891174
0.45784926414489746 0.14133718609809875 0.3602316677570343
0.68655341863632202 0.15817658603191376 0.38649666309356689
0.84583055973052979 0.19090659916400909 0.41876935958862305
0.21295469999313354 0.20818261802196503 0.37291726469993591
0.31093063950538635 0.22100915014743805 0.36431905627250671
0.44412198662757874 0.28266614675521851 0.37721967697143555
0.67804485559463501 0.25673672556877136 0.41908743977546692
0.85516077280044556 0.28237882256507874 0.43954414129257202
0.27353990077972412 0.4101729691028595 0.39310884475708008
0.39543482661247253 0.41664251685142517 0.3956792950630188
0.46781134605407715 0.45156753063201904 0.44749239087104797
0.55347251892089844 0.49962300062179565 0.50003457069396973
0.83062249422073364 0.49283415079116821 0.49403443932533264
0.28099822998046875 0.57481002807617188 0.40632086992263794
0.42795005440711975 0.56567400693893433 0.40664258599281311
0.54049587249755859 0.58080565929412842 0.43732786178588867
0.67808824777603149 0.66230207681655884 0.4688643217086792
0.84067422151565552 0.69220352172851562 0.56283891201019287
0.25754436850547791 0.72436845302581787 0.41525140404701233
0.41347891092300415 0.6954270601272583 0.41707170009613037
0.55356806516647339 0.68421673774719238 0.43644830584526062
0.72263139486312866 0.73885315656661987 0.47014784812927246
0.90448492765426636 0.85936307907104492 0.46375441551208496
0.13039550185203552 0.054417982697486877 0.45621961355209351
0.25416073203086853 0.088547550141811371 0.45706009864807129
0.4707598090171814 0.15265408158302307 0.49697735905647278
0.70024669170379639 0.19746053218841553 0.52560746669769287
0.87465763092041016 0.23843148350715637 0.5748404860496521
0.1985926479101181 0.21856160461902618 0.49078390002250671
0.30744063854217529 0.23755592107772827 0.4750511646270752
0.46657058596611023 0.30722704529762268 0.50103318691253662
0.69382673501968384 0.32641902565956116 0.53444397449493408
0.88289487361907959 0.35088628530502319 0.57193219661712646
0.26607462763786316 0.42991545796394348 0.54128295183181763
0.40499305725097656 0.43750512599945068 0.52333801984786987
0.51047986745834351 0.46607255935668945 0.52576285600662231
0.67384910583496094 0.48981651663780212 0.5709882378578186
0.89654070138931274 0.47523120045661926 0.63491475582122803
0.29868090152740479 0.60491263866424561 0.58357226848602295
0.46360668540000916 0.59711933135986328 0.57398170232772827
0.59454023838043213 0.61063253879547119 0.5901259183883667
0.69670170545578003 0.66439330577850342 0.6537202000617981
0.89143252372741699 0.67898929119110107 0.6764025092124939
0.27942547202110291 0.75707870721817017 0.6012037992477417
0.45060083270072937 0.7304917573928833 0.59490430355072021
0.60516059398651123 0.71838539838790894 0.61265766620635986
0.74196135997772217 0.75683444738388062 0.65032076835632324
0.90152895450592041 0.87331634759902954 0.70149731636047363
0.10671083629131317 0.046528249979019165 0.61677467823028564
0.25701195001602173 0.076935216784477234 0.62022155523300171
0.47515159845352173 0.14207983016967773 0.66378438472747803
0.70025855302810669 0.19058004021644592 0.68349480628967285
0.88749420642852783 0.22853490710258484 0.71215903759002686
0.16390681266784668 0.22475674748420715 0.64585888385772705
0.29719743132591248 0.24363306164741516 0.63898617029190063
0.4773176908493042 0.29804724454879761 0.64620906114578247
0.69959789514541626 0.33064606785774231 0.66188657283782959
0.8912729024887085 0.36837634444236755 0.6973717212677002
0.23224323987960815 0.4398123025894165 0.6962125301361084
0.38643541932106018 0.44588002562522888 0.65944474935531616
0.51705288887023926 0.46932178735733032 0.65500688552856445
0.69331067800521851 0.50328010320663452 0.68172562122344971
0.90286648273468018 0.50960361957550049 0.71792882680892944
0.28280287981033325 0.62596094608306885 0.73759818077087402
0.45106780529022217 0.62366503477096558 0.71263682842254639
0.60352867841720581 0.64057612419128418 0.70565807819366455
0.73189795017242432 0.67891150712966919 0.73206901550292969
0.90110397338867188 0.68659293651580811 0.80311918258666992
0.27859336137771606 0.78722739219665527 0.77140426635742188
0.46648359298706055 0.76854383945465088 0.75083661079406738
0.63629031181335449 0.76575940847396851 0.74972611665725708
0.7833220362663269 0.79134643077850342 0.77926206588745117
0.91160106658935547 0.87398552894592285 0.87038809061050415
