shell/ffmpeg_scripts/linux/selective-colour-lut-keep-only-red-002.cube
# Created by: G'MIC (https://gmic.eu)
TITLE "output"
# LUT size
LUT_3D_SIZE 32
# Data domain
DOMAIN_MIN 0.0 0.0 0.0
DOMAIN_MAX 1.0 1.0 1.0
# LUT data points
0.030067583546042442 0.015134274028241634 0.014492892660200596
0.042187176644802094 0.012567033059895039 0.0082941539585590363
0.072828404605388641 0.010776002891361713 0.011215168982744217
0.10361634194850922 0.010865389369428158 0.011719396337866783
0.13441953063011169 0.01043482031673193 0.012398249469697475
0.16574716567993164 0.010654499754309654 0.013498791493475437
0.19529803097248077 0.011905582621693611 0.015633827075362206
0.2254132479429245 0.013851044699549675 0.017340626567602158
0.25564974546432495 0.016998110339045525 0.020455371588468552
0.28237751126289368 0.023784104734659195 0.026675349101424217
0.31293085217475891 0.028072085231542587 0.031893931329250336
0.34562325477600098 0.030305791646242142 0.034296195954084396
0.38578581809997559 0.013378797098994255 0.021721290424466133
0.41953158378601074 0.014137822203338146 0.023706449195742607
0.45121100544929504 0.01166948676109314 0.022710764780640602
0.47987920045852661 0.014076299034059048 0.032320704311132431
0.5153656005859375 0.010597166605293751 0.037631187587976456
0.54434245824813843 0.015910960733890533 0.038259252905845642
0.57190686464309692 0.031984202563762665 0.056024022400379181
0.6040499210357666 0.029454324394464493 0.067583143711090088
0.63951367139816284 0.018629202619194984 0.069484703242778778
0.67170333862304688 0.016767943277955055 0.074680633842945099
0.70236188173294067 0.015815440565347672 0.080445364117622375
0.73205757141113281 0.017748059704899788 0.086351439356803894
0.76349484920501709 0.018629670143127441 0.091790355741977692
0.79555946588516235 0.020728498697280884 0.096386022865772247
0.82611459493637085 0.021817818284034729 0.098969489336013794
0.85723704099655151 0.023291219025850296 0.099900417029857635
0.88775187730789185 0.028942795470356941 0.10015160590410233
0.9142194390296936 0.036728948354721069 0.10003575682640076
0.92682623863220215 0.04030923917889595 0.098876245319843292
0.93271553516387939 0.040557201951742172 0.097318105399608612
0.038151711225509644 0.037907358258962631 0.025159275159239769
0.045620489865541458 0.038946948945522308 0.019903386011719704
0.073222123086452484 0.039218951016664505 0.014542453922331333
0.10320640355348587 0.039695803076028824 0.012652762234210968
0.13437210023403168 0.041502442210912704 0.014200490899384022
0.16298756003379822 0.044011328369379044 0.016342291608452797
0.19616787135601044 0.044521801173686981 0.01719103567302227
0.22187539935112 0.049302849918603897 0.023670509457588196
0.25202113389968872 0.052665118128061295 0.027368662878870964
0.26526275277137756 0.071405075490474701 0.054060064256191254
0.29048618674278259 0.082187876105308533 0.067405246198177338
0.32777491211891174 0.08332439512014389 0.0704478919506073
0.35499030351638794 0.08919873833656311 0.078292414546012878
0.39870187640190125 0.077239677309989929 0.06744316965341568
0.43196430802345276 0.072131134569644928 0.058335207402706146
0.46818867325782776 0.063087835907936096 0.060194198042154312
0.50600624084472656 0.052415769547224045 0.050628010183572769
0.53459620475769043 0.063318520784378052 0.061968684196472168
0.56015413999557495 0.080983728170394897 0.077114962041378021
0.59555357694625854 0.074090585112571716 0.080457612872123718
0.63582479953765869 0.055127698928117752 0.075142242014408112
0.6712072491645813 0.045589499175548553 0.073648624122142792
0.7010725736618042 0.044337239116430283 0.080998942255973816
0.72997236251831055 0.045260287821292877 0.09001198410987854
0.76130825281143188 0.04496615007519722 0.09794442355632782
0.79297959804534912 0.045446842908859253 0.10244961082935333
0.82389038801193237 0.045128624886274338 0.10529278218746185
0.85282683372497559 0.04529929906129837 0.10659652948379517
0.88360720872879028 0.047944687306880951 0.10593854635953903
0.91078561544418335 0.051201310008764267 0.10334507375955582
0.92398375272750854 0.053034529089927673 0.100788913667202
0.92992216348648071 0.053586333990097046 0.099182389676570892
0.057001408189535141 0.063241012394428253 0.042689003050327301
0.065898537635803223 0.065390944480895996 0.037249922752380371
0.082691371440887451 0.067404024302959442 0.022609811276197433
0.10624499619007111 0.069775193929672241 0.014325084164738655
0.13606923818588257 0.071164458990097046 0.013762894086539745
0.16347552835941315 0.073793880641460419 0.016253221780061722
0.19350123405456543 0.074866443872451782 0.018755564466118813
0.22145308554172516 0.078802675008773804 0.028965350240468979
0.24050863087177277 0.08836519718170166 0.049100406467914581
0.26596561074256897 0.09573894739151001 0.059490174055099487
0.27086693048477173 0.12029386311769485 0.098946906626224518
0.29813721776008606 0.13041393458843231 0.11263615638017654
0.3267119824886322 0.13422492146492004 0.11624539643526077
0.34801265597343445 0.14561939239501953 0.13079255819320679
0.40086892247200012 0.13691271841526031 0.1133853942155838
0.42595729231834412 0.1391516774892807 0.12303449213504791
0.48038992285728455 0.11779389530420303 0.096673421561717987
0.51510524749755859 0.11670186370611191 0.095261178910732269
0.55709540843963623 0.10935009270906448 0.08628460019826889
0.59547996520996094 0.10137506574392319 0.081905066967010498
0.63292670249938965 0.090621985495090485 0.073560930788516998
0.67003816366195679 0.078417889773845673 0.064971975982189178
0.69881957769393921 0.078359149396419525 0.076163329184055328
0.72693419456481934 0.080138742923736572 0.092465579509735107
0.75777316093444824 0.079530507326126099 0.1039297804236412
0.79003751277923584 0.078751839697360992 0.11001871526241302
0.82010376453399658 0.076881252229213715 0.11357703804969788
0.84685277938842773 0.076262533664703369 0.11542835831642151
0.87590271234512329 0.0776800736784935 0.11449684202671051
0.90124833583831787 0.079938329756259918 0.1091504767537117
0.91565030813217163 0.080781787633895874 0.10435684025287628
0.92236971855163574 0.081175930798053741 0.10251849889755249
0.07938694953918457 0.089544400572776794 0.060698915272951126
0.089860506355762482 0.091141089797019958 0.054199673235416412
0.10202451795339584 0.093250766396522522 0.04671279713511467
0.11853565275669098 0.095517553389072418 0.032743416726589203
0.13854439556598663 0.10171343386173248 0.018301961943507195
0.16757221519947052 0.10064895451068878 0.01839543879032135
0.19338808953762054 0.10538963228464127 0.022046985104680061
0.21926195919513702 0.10945533215999603 0.039185728877782822
0.24900780618190765 0.1108628585934639 0.041480481624603271
0.26959919929504395 0.11872316896915436 0.059224698692560196
0.27788224816322327 0.13447371125221252 0.095242373645305634
0.28488537669181824 0.15610578656196594 0.13282465934753418
0.29291531443595886 0.17316468060016632 0.15641783177852631
0.30823990702629089 0.18952973186969757 0.17745186388492584
0.36724767088890076 0.17272309958934784 0.14801415801048279
0.41122075915336609 0.1766534298658371 0.14560998976230621
0.41881680488586426 0.19567587971687317 0.17158366739749908
0.47125920653343201 0.17670707404613495 0.14757320284843445
0.54187458753585815 0.15057377517223358 0.10767772793769836
0.58888018131256104 0.13841287791728973 0.091934807598590851
0.62669634819030762 0.12747566401958466 0.080231398344039917
0.66859275102615356 0.11081835627555847 0.05860530212521553
0.69577556848526001 0.11151214689016342 0.075979560613632202
0.72310829162597656 0.11368423700332642 0.095340952277183533
0.75273644924163818 0.11474629491567612 0.10997859388589859
0.78463935852050781 0.11358708888292313 0.11893268674612045
0.8144068717956543 0.11142351478338242 0.12265381217002869
0.8406904935836792 0.1099063828587532 0.12341053783893585
0.86667782068252563 0.11017131060361862 0.12134799361228943
0.89079999923706055 0.11144490540027618 0.11374399811029434
0.90652245283126831 0.11173985153436661 0.10710588842630386
0.91453474760055542 0.11199291795492172 0.10471594333648682
0.10205557197332382 0.11526904255151749 0.072656221687793732
0.11220760643482208 0.11644531786441803 0.068551249802112579
0.12337840348482132 0.11820439249277115 0.062822997570037842
0.14096157252788544 0.121566541492939 0.052083440124988556
0.15897396206855774 0.12647730112075806 0.039403297007083893
0.17238853871822357 0.1307583749294281 0.031451813876628876
0.19899220764636993 0.13164389133453369 0.037923365831375122
0.22569632530212402 0.13592448830604553 0.043777469545602798
0.24814817309379578 0.14162221550941467 0.059264156967401505
0.25623014569282532 0.1540738046169281 0.1011866107583046
0.27837589383125305 0.16106599569320679 0.11300093680620193
0.28906485438346863 0.1779046505689621 0.14228571951389313
0.27891397476196289 0.20180584490299225 0.18594056367874146
0.31639429926872253 0.20471811294555664 0.18447031080722809
0.31458204984664917 0.2237420380115509 0.20941463112831116
0.39064410328865051 0.20568038523197174 0.17479550838470459
0.42733922600746155 0.20603267848491669 0.16909994184970856
0.41300243139266968 0.23954452574253082 0.21576541662216187
0.51643025875091553 0.19177182018756866 0.13331712782382965
0.59001386165618896 0.1622902899980545 0.079697124660015106
0.61944913864135742 0.16452307999134064 0.091999180614948273
0.65807944536209106 0.15161621570587158 0.081970743834972382
0.69066792726516724 0.14534521102905273 0.085327208042144775
0.71833330392837524 0.14772965013980865 0.10230230540037155
0.7473568320274353 0.14966864883899689 0.11754313856363297
0.77819573879241943 0.14811705052852631 0.12598298490047455
0.80715405941009521 0.14566498994827271 0.13042858242988586
0.83322054147720337 0.1441468745470047 0.12912607192993164
0.85809892416000366 0.14362883567810059 0.12477700412273407
0.88146895170211792 0.14361310005187988 0.11640989035367966
0.89824676513671875 0.14344809949398041 0.10843958705663681
0.90771764516830444 0.14366064965724945 0.10533889383077621
0.12265321612358093 0.14043447375297546 0.082332119345664978
0.1326630562543869 0.14108696579933167 0.079925008118152618
0.14436338841915131 0.14300556480884552 0.076783992350101471
0.16116128861904144 0.146728515625 0.069178670644760132
0.1750790923833847 0.15054091811180115 0.060699757188558578
0.18771328032016754 0.15682205557823181 0.060380391776561737
0.20830214023590088 0.16223098337650299 0.064424708485603333
0.22711367905139923 0.16410033404827118 0.0655326247215271
0.25312232971191406 0.16700321435928345 0.06704355776309967
0.27791702747344971 0.17073072493076324 0.067980051040649414
0.27614066004753113 0.18822282552719116 0.13657476007938385
0.29405328631401062 0.19724218547344208 0.15406244993209839
0.30196890234947205 0.21266570687294006 0.18073645234107971
0.30900731682777405 0.2270628958940506 0.20496322214603424
0.33918613195419312 0.23458227515220642 0.21196089684963226
0.36366757750511169 0.24142344295978546 0.21641488373279572
0.42191702127456665 0.22831994295120239 0.18681454658508301
0.42765983939170837 0.2488439679145813 0.21650172770023346
0.49729490280151367 0.22651949524879456 0.16486966609954834
0.58326572179794312 0.18746240437030792 0.08072228729724884
0.62107419967651367 0.19095532596111298 0.081335946917533875
0.65590798854827881 0.18564343452453613 0.090989992022514343
0.6867225170135498 0.18205872178077698 0.10042789578437805
0.71571016311645508 0.1827012300491333 0.11223336309194565
0.74465715885162354 0.18363223969936371 0.12507298588752747
0.77223718166351318 0.18263176083564758 0.13206084072589874
0.79968094825744629 0.18043117225170135 0.13508528470993042
0.8262253999710083 0.17851424217224121 0.13326102495193481
0.8511015772819519 0.17739751935005188 0.12574629485607147
0.87429249286651611 0.17657530307769775 0.11646687984466553
0.89213854074478149 0.17594252526760101 0.10727842152118683
0.902740478515625 0.17601397633552551 0.10353364050388336
0.13965608179569244 0.16536399722099304 0.091551162302494049
0.14972791075706482 0.16583329439163208 0.091096565127372742
0.16209337115287781 0.16841192543506622 0.090517327189445496
0.17682543396949768 0.17202164232730865 0.087090186774730682
0.18923421204090118 0.17734512686729431 0.086075685918331146
0.20159727334976196 0.18455703556537628 0.087961345911026001
0.21855443716049194 0.18858057260513306 0.088560029864311218
0.23655493557453156 0.18999800086021423 0.084812022745609283
0.25696125626564026 0.19501036405563354 0.092200025916099548
0.28083989024162292 0.19974438846111298 0.095958225429058075
0.28850314021110535 0.21337424218654633 0.14539046585559845
0.30719658732414246 0.21845854818820953 0.1558537483215332
0.32072880864143372 0.22898745536804199 0.17498275637626648
0.32612159848213196 0.24322478473186493 0.20767739415168762
0.33981099724769592 0.25554919242858887 0.22468176484107971
0.36628147959709167 0.26218485832214355 0.23427867889404297
0.38752448558807373 0.2712322473526001 0.24382077157497406
0.43057072162628174 0.27195975184440613 0.23437488079071045
0.47377240657806396 0.26554363965988159 0.21527399122714996
0.50501257181167603 0.26356586813926697 0.20518644154071808
0.59021776914596558 0.23571449518203735 0.13987937569618225
0.6533387303352356 0.21774318814277649 0.10488611459732056
0.68601411581039429 0.21505510807037354 0.1064194068312645
0.71358919143676758 0.21558476984500885 0.11834511160850525
0.73890781402587891 0.21701788902282715 0.13260678946971893
0.76457560062408447 0.21762712299823761 0.14250998198986053
0.7926751971244812 0.21589107811450958 0.14336545765399933
0.82097434997558594 0.21320745348930359 0.13730724155902863
0.8458440899848938 0.2114902138710022 0.1271463930606842
0.86950963735580444 0.20981034636497498 0.11420563608407974
0.88904720544815063 0.20862029492855072 0.10289272665977478
0.90044808387756348 0.20848782360553741 0.098536357283592224
0.15366260707378387 0.19054542481899261 0.10057780891656876
0.16423146426677704 0.19138160347938538 0.10206387937068939
0.17688998579978943 0.19435733556747437 0.10413149744272232
0.18987344205379486 0.19901165366172791 0.10556256026029587
0.2006373256444931 0.20576559007167816 0.10913113504648209
0.21066516637802124 0.21300593018531799 0.1122322678565979
0.2276136577129364 0.21545940637588501 0.10770260542631149
0.24794414639472961 0.21728581190109253 0.1041940450668335
0.26657667756080627 0.22263443470001221 0.1084616407752037
0.28664499521255493 0.22853593528270721 0.11115837097167969
0.30775949358940125 0.23376463353633881 0.12163501232862473
0.32597902417182922 0.23747260868549347 0.1330820769071579
0.33898001909255981 0.24804477393627167 0.16923396289348602
0.34963232278823853 0.2580636739730835 0.20131941139698029
0.35835781693458557 0.27107837796211243 0.22484476864337921
0.38460952043533325 0.27767720818519592 0.22622422873973846
0.40913519263267517 0.28419268131256104 0.23778852820396423
0.46850737929344177 0.27713075280189514 0.20613802969455719
0.50586670637130737 0.27694925665855408 0.19845248758792877
0.50089412927627563 0.29681757092475891 0.23993268609046936
0.56394296884536743 0.27953749895095825 0.19745466113090515
0.63438600301742554 0.25747621059417725 0.13556930422782898
0.68094664812088013 0.24840691685676575 0.11666587740182877
0.70141160488128662 0.25399395823478699 0.14398692548274994
0.72574001550674438 0.25648513436317444 0.16065800189971924
0.75535297393798828 0.25518602132797241 0.16320641338825226
0.78788423538208008 0.2508368194103241 0.15436284244060516
0.81690764427185059 0.24707825481891632 0.14071653783321381
0.84176796674728394 0.24495683610439301 0.12725752592086792
0.86625736951828003 0.24290241301059723 0.11262274533510208
0.88610446453094482 0.24133342504501343 0.098680712282657623
0.89822030067443848 0.24094973504543304 0.092765472829341888
0.1658199280500412 0.21635922789573669 0.10882632434368134
0.17773628234863281 0.21750368177890778 0.11172787100076675
0.19105657935142517 0.22047635912895203 0.11537989228963852
0.20313394069671631 0.22480404376983643 0.11925970017910004
0.21354347467422485 0.23015320301055908 0.12259840220212936
0.22381559014320374 0.23615662753582001 0.12323774397373199
0.23877392709255219 0.24101726710796356 0.11866713315248489
0.25839135050773621 0.24483272433280945 0.1139240488409996
0.27733394503593445 0.25139147043228149 0.1062982976436615
0.29781129956245422 0.25635653734207153 0.10604735463857651
0.32087516784667969 0.25728383660316467 0.11494697630405426
0.33868309855461121 0.26006966829299927 0.13173086941242218
0.35750830173492432 0.26565355062484741 0.15194588899612427
0.37357258796691895 0.27600374817848206 0.18249569833278656
0.39265313744544983 0.28320923447608948 0.19656351208686829
0.42580503225326538 0.28390821814537048 0.19019001722335815
0.44495505094528198 0.29446485638618469 0.2057393491268158
0.48294231295585632 0.29412347078323364 0.18503731489181519
0.53186744451522827 0.28714177012443542 0.16436724364757538
0.54912149906158447 0.3000313937664032 0.19170823693275452
0.54328030347824097 0.32155680656433105 0.24915584921836853
0.61070853471755981 0.30347809195518494 0.19331035017967224
0.65871655941009521 0.2932373583316803 0.16644361615180969
0.67903804779052734 0.30016002058982849 0.19590829312801361
0.71438401937484741 0.29663869738578796 0.19135040044784546
0.75189453363418579 0.29030787944793701 0.17747290432453156
0.78770577907562256 0.28307634592056274 0.15631954371929169
0.81633251905441284 0.27930012345314026 0.13837547600269318
0.84152054786682129 0.2774709165096283 0.12515564262866974
0.86597526073455811 0.27498924732208252 0.10654010623693466
0.88360953330993652 0.27364665269851685 0.091836936771869659
0.89430439472198486 0.27341604232788086 0.086477465927600861
0.17740587890148163 0.24238650500774384 0.11538322269916534
0.19113986194133759 0.24284280836582184 0.11909758299589157
0.20414505898952484 0.24452127516269684 0.12278188765048981
0.21596978604793549 0.24738316237926483 0.12613005936145782
0.22720089554786682 0.25145336985588074 0.12793846428394318
0.23928926885128021 0.25731334090232849 0.1261962354183197
0.25285190343856812 0.26468366384506226 0.12169615179300308
0.2678162157535553 0.27244678139686584 0.11459385603666306
0.28769347071647644 0.27776017785072327 0.10610365867614746
0.30985647439956665 0.28072553873062134 0.10665840655565262
0.33236846327781677 0.2820034921169281 0.12230858951807022
0.35161745548248291 0.28493624925613403 0.13322931528091431
0.37260761857032776 0.29036659002304077 0.14386266469955444
0.39593961834907532 0.29754620790481567 0.16016499698162079
0.41798833012580872 0.30299773812294006 0.18102645874023438
0.42731192708015442 0.31247088313102722 0.21137882769107819
0.43677139282226562 0.32437172532081604 0.24363172054290771
0.49277320504188538 0.3190215528011322 0.20498685538768768
0.53115165233612061 0.31817933917045593 0.18348869681358337
0.57231110334396362 0.31267076730728149 0.16151116788387299
0.58603399991989136 0.32807323336601257 0.20778587460517883
0.61175674200057983 0.33272305130958557 0.21049273014068604
0.62897425889968872 0.34426581859588623 0.23857483267784119
0.66484916210174561 0.34209510684013367 0.23582996428012848
0.71371203660964966 0.33100283145904541 0.20544227957725525
0.75373697280883789 0.32213607430458069 0.18267206847667694
0.79355472326278687 0.31242108345031738 0.14805720746517181
0.81952482461929321 0.31095206737518311 0.13596461713314056
0.84533709287643433 0.3084767758846283 0.11596754938364029
0.86864954233169556 0.30602425336837769 0.092710360884666443
0.88314288854598999 0.30536627769470215 0.080351993441581726
0.89248889684677124 0.30541747808456421 0.07704414427280426
0.18852396309375763 0.26691669225692749 0.12013880908489227
0.20223022997379303 0.26644369959831238 0.12363137304782867
0.21515750885009766 0.26726627349853516 0.12695722281932831
0.22752082347869873 0.26939532160758972 0.12937267124652863
0.24028024077415466 0.27362322807312012 0.12923796474933624
0.25393617153167725 0.28011369705200195 0.12608826160430908
0.26688888669013977 0.28778484463691711 0.12082607299089432
0.2802523672580719 0.29513144493103027 0.11566831171512604
0.29862713813781738 0.30011609196662903 0.11241225153207779
0.32274752855300903 0.30311879515647888 0.11337693780660629
0.34552359580993652 0.30732685327529907 0.1190926805138588
0.36618202924728394 0.31249153614044189 0.12688994407653809
0.38784295320510864 0.31802204251289368 0.13835237920284271
0.40958917140960693 0.32239881157875061 0.15016289055347443
0.42553019523620605 0.32835474610328674 0.17882233858108521
0.44638586044311523 0.33413070440292358 0.19670143723487854
0.48466518521308899 0.33068698644638062 0.17172293365001678
0.50735306739807129 0.33849182724952698 0.19375285506248474
0.55151748657226562 0.33742114901542664 0.13937662541866302
0.58540046215057373 0.33504623174667358 0.11532804369926453
0.59801375865936279 0.34690392017364502 0.1640157550573349
0.64379584789276123 0.34825178980827332 0.12995097041130066
0.64322340488433838 0.36470326781272888 0.20621372759342194
0.66493415832519531 0.37097382545471191 0.23778374493122101
0.7001681923866272 0.37224781513214111 0.24441921710968018
0.76748526096343994 0.34807491302490234 0.16751570999622345
0.80109578371047974 0.34279027581214905 0.145036980509758
0.82670515775680542 0.34082302451133728 0.12511526048183441
0.85313671827316284 0.33783528208732605 0.095083855092525482
0.87372356653213501 0.33626529574394226 0.073277510702610016
0.88502764701843262 0.33650681376457214 0.066830970346927643
0.89326262474060059 0.3368760347366333 0.067523017525672913
0.19746483862400055 0.29037243127822876 0.12279585003852844
0.21138051152229309 0.28953877091407776 0.12604287266731262
0.22474142909049988 0.28995722532272339 0.12873853743076324
0.23831576108932495 0.29242393374443054 0.12968321144580841
0.25281473994255066 0.29726073145866394 0.12814238667488098
0.26664668321609497 0.30303663015365601 0.12485039234161377
0.27949404716491699 0.3089413046836853 0.12147720903158188
0.29354378581047058 0.31457296013832092 0.11963462829589844
0.31226053833961487 0.32048174738883972 0.11785943061113358
0.33423787355422974 0.3272520899772644 0.11524283140897751
0.35578891634941101 0.33404329419136047 0.11521241068840027
0.37679800391197205 0.33990335464477539 0.12641504406929016
0.39595326781272888 0.34576407074928284 0.14086881279945374
0.41527554392814636 0.34843358397483826 0.15142351388931274
0.43446353077888489 0.35345679521560669 0.1681639701128006
0.46446996927261353 0.35480105876922607 0.16444812715053558
0.49713119864463806 0.3573056161403656 0.1579640805721283
0.50764483213424683 0.36934643983840942 0.20768061280250549
0.55238097906112671 0.36749812960624695 0.16150563955307007
0.59428733587265015 0.36610493063926697 0.10111518204212189
0.62243366241455078 0.36582434177398682 0.1234254390001297
0.66234642267227173 0.36451351642608643 0.087154015898704529
0.66715800762176514 0.37957286834716797 0.16533496975898743
0.6935315728187561 0.38559022545814514 0.18140842020511627
0.73059231042861938 0.38814595341682434 0.18927657604217529
0.76994526386260986 0.38136875629425049 0.17731679975986481
0.81076115369796753 0.37275955080986023 0.13718868792057037
0.83902484178543091 0.36814737319946289 0.097271226346492767
0.86484789848327637 0.36618053913116455 0.066638171672821045
0.88123041391372681 0.36595803499221802 0.053535301238298416
0.88979029655456543 0.36726364493370056 0.057623773813247681
0.89620548486709595 0.36767286062240601 0.060543205589056015
0.20483098924160004 0.31376302242279053 0.12388375401496887
0.21912634372711182 0.31273385882377625 0.12673152983188629
0.23344364762306213 0.31350791454315186 0.12842793762683868
0.24873214960098267 0.31651774048805237 0.12827853858470917
0.26357263326644897 0.32027614116668701 0.12680912017822266
0.27713271975517273 0.32427120208740234 0.12502974271774292
0.29055997729301453 0.32854974269866943 0.12411163002252579
0.3064044713973999 0.33391833305358887 0.12351468205451965
0.32617813348770142 0.34079766273498535 0.12147770822048187
0.34583598375320435 0.34856879711151123 0.1198638528585434
0.36418291926383972 0.35609737038612366 0.12279035151004791
