shell/ffmpeg_scripts/linux/selective-colour-lut-keep-only-red-001.cube
# Created by: G'MIC (https://gmic.eu)
TITLE "output"
# LUT size
LUT_3D_SIZE 32
# Data domain
DOMAIN_MIN 0.0 0.0 0.0
DOMAIN_MAX 1.0 1.0 1.0
# LUT data points
0.030940735712647438 0.030976060777902603 0.030977314338088036
0.026241354644298553 0.025606527924537659 0.025609146803617477
0.030879508703947067 0.029731083661317825 0.029659731313586235
0.049126461148262024 0.045491483062505722 0.04535047709941864
0.06441749632358551 0.0589769147336483 0.058689843863248825
0.085243761539459229 0.066001385450363159 0.068835273385047913
0.12893976271152496 0.069115333259105682 0.081783436238765717
0.17458604276180267 0.072086155414581299 0.094716012477874756
0.22122934460639954 0.067132838070392609 0.10413607954978943
0.26818203926086426 0.057160332798957825 0.11125391721725464
0.30861598253250122 0.053073212504386902 0.12058726698160172
0.33973014354705811 0.057009592652320862 0.13224126398563385
0.36681410670280457 0.063868500292301178 0.1438145786523819
0.39419096708297729 0.070277705788612366 0.15406477451324463
0.42028307914733887 0.0771198570728302 0.16412964463233948
0.44431066513061523 0.084253102540969849 0.17320869863033295
0.46801957488059998 0.091139182448387146 0.18116740882396698
0.49175792932510376 0.097428396344184875 0.18780435621738434
0.5157771110534668 0.10300749540328979 0.19316759705543518
0.53996366262435913 0.10815020650625229 0.19806426763534546
0.56315863132476807 0.11319673806428909 0.20344255864620209
0.58611762523651123 0.11759862303733826 0.20775657892227173
0.60943657159805298 0.12138865143060684 0.2110229879617691
0.63310492038726807 0.12447889894247055 0.2132604569196701
0.65704309940338135 0.12678547203540802 0.21445013582706451
0.68104445934295654 0.12839062511920929 0.21479550004005432
0.70312285423278809 0.12927767634391785 0.214509516954422
0.72348868846893311 0.1287732720375061 0.2123950868844986
0.7434191107749939 0.12731724977493286 0.20900143682956696
0.76308375597000122 0.1253046840429306 0.20494586229324341
0.78271692991256714 0.12289629876613617 0.20047560334205627
0.80269336700439453 0.12017755955457687 0.19571803510189056
0.043784689158201218 0.045238163322210312 0.043691892176866531
0.04267825186252594 0.042770087718963623 0.041936136782169342
0.048947960138320923 0.048019681125879288 0.047402489930391312
0.064595796167850494 0.060444779694080353 0.059031769633293152
0.082390554249286652 0.072610899806022644 0.070408694446086884
0.10237295925617218 0.080073155462741852 0.079472370445728302
0.14086899161338806 0.078183643519878387 0.087086476385593414
0.18950249254703522 0.076852180063724518 0.09735773503780365
0.23520427942276001 0.069806449115276337 0.10514878481626511
0.27834421396255493 0.059943504631519318 0.11184053122997284
0.31260210275650024 0.059295926243066788 0.12209104746580124
0.34028914570808411 0.065371640026569366 0.13434384763240814
0.36747968196868896 0.072220019996166229 0.14571991562843323
0.3949943482875824 0.07880043238401413 0.15589101612567902
0.42065185308456421 0.085816457867622375 0.16600258648395538
0.44458884000778198 0.093356609344482422 0.17514820396900177
0.46837058663368225 0.10076316446065903 0.18318913877010345
0.49225404858589172 0.10765037685632706 0.18988610804080963
0.51638489961624146 0.11398307234048843 0.19555963575839996
0.54004758596420288 0.11976064741611481 0.20112363994121552
0.56305480003356934 0.12511952221393585 0.2065010666847229
0.58614462614059448 0.13001351058483124 0.21087084710597992
0.60963404178619385 0.13433898985385895 0.21421457827091217
0.63349294662475586 0.13799202442169189 0.21652525663375854
0.65771597623825073 0.14095868170261383 0.21789313852787018
0.68101674318313599 0.14335809648036957 0.21889118850231171
0.7020307183265686 0.14434504508972168 0.21820859611034393
0.72204703092575073 0.14407061040401459 0.21572868525981903
0.74172335863113403 0.14292362332344055 0.21204027533531189
0.76114678382873535 0.14129854738712311 0.20782512426376343
0.78049343824386597 0.13932415843009949 0.20331759750843048
0.80025601387023926 0.13702037930488586 0.19851389527320862
0.063124909996986389 0.067212186753749847 0.062788128852844238
0.065475739538669586 0.066954344511032104 0.063857793807983398
0.069979295134544373 0.070026800036430359 0.067857943475246429
0.081513896584510803 0.07865414023399353 0.075807973742485046
0.1008213683962822 0.08965514600276947 0.085013009607791901
0.12097238749265671 0.097172491252422333 0.091672614216804504
0.15724045038223267 0.095503993332386017 0.097322314977645874
0.20557481050491333 0.088820666074752808 0.10362681001424789
0.24772363901138306 0.083234980702400208 0.10942825675010681
0.28339457511901855 0.078940480947494507 0.11650331318378448
0.31302040815353394 0.079731740057468414 0.12614326179027557
0.34053060412406921 0.083262056112289429 0.13757570087909698
0.36828678846359253 0.087488852441310883 0.14864461123943329
0.39616164565086365 0.092173367738723755 0.15866988897323608
0.42176958918571472 0.098237648606300354 0.16882768273353577
0.4460894763469696 0.10538302361965179 0.17807002365589142
0.47021207213401794 0.11278275400400162 0.18612237274646759
0.49439570307731628 0.120082788169384 0.19296878576278687
0.51807230710983276 0.12683895230293274 0.19940091669559479
0.54148012399673462 0.1326860636472702 0.20494967699050903
0.56478357315063477 0.13841739296913147 0.21046200394630432
0.58819657564163208 0.14377880096435547 0.2150353342294693
0.61192631721496582 0.14855970442295074 0.21850895881652832
0.6359676718711853 0.1526787132024765 0.22087585926055908
0.65981894731521606 0.1562163233757019 0.22265326976776123
0.68148112297058105 0.15862004458904266 0.22342313826084137
0.70168930292129517 0.15956608951091766 0.22203759849071503
0.72121560573577881 0.15950049459934235 0.21912328898906708
0.74045801162719727 0.15874582529067993 0.21525661647319794
0.75926125049591064 0.15760503709316254 0.21112504601478577
0.77835768461227417 0.155986487865448 0.20645645260810852
0.79803997278213501 0.15403518080711365 0.20147603750228882
0.082136817276477814 0.090755052864551544 0.081552430987358093
0.086773283779621124 0.0913219153881073 0.084018208086490631
0.093083746731281281 0.09506700187921524 0.089210681617259979
0.10306528210639954 0.10257911682128906 0.096438013017177582
0.11919952929019928 0.11171729862689972 0.1023557186126709
0.13969975709915161 0.11840517073869705 0.10639385879039764
0.16872191429138184 0.12009433656930923 0.11147069185972214
0.20706713199615479 0.11578497290611267 0.11792559176683426
0.24543385207653046 0.11132088303565979 0.12225496768951416
0.28030186891555786 0.10942801088094711 0.12627692520618439
0.31020006537437439 0.11083503812551498 0.13200855255126953
0.33919590711593628 0.11204049736261368 0.13958989083766937
0.36739969253540039 0.11346986889839172 0.15051300823688507
0.39514803886413574 0.11599382013082504 0.16202118992805481
0.42136940360069275 0.11988711357116699 0.17359316349029541
0.4469245970249176 0.12468963861465454 0.18340912461280823
0.47226879000663757 0.13032129406929016 0.19127941131591797
0.49684098362922668 0.13654910027980804 0.19851259887218475
0.52041298151016235 0.14255715906620026 0.20490507781505585
0.54431229829788208 0.14819721877574921 0.21031950414180756
0.56803077459335327 0.15388812124729156 0.21581204235553741
0.59164315462112427 0.15933454036712646 0.22033880650997162
0.61542278528213501 0.16427150368690491 0.22368255257606506
0.63934522867202759 0.16865444183349609 0.22609645128250122
0.66166442632675171 0.17221136391162872 0.22808113694190979
0.68212211132049561 0.17428027093410492 0.22789978981018066
0.70162707567214966 0.17527134716510773 0.22591733932495117
0.72064357995986938 0.17545253038406372 0.22262673079967499
0.73911517858505249 0.1751561313867569 0.2188737541437149
0.75745797157287598 0.17435510456562042 0.21458286046981812
0.77642834186553955 0.17312069237232208 0.20974834263324738
0.79605531692504883 0.17155131697654724 0.20461633801460266
0.10055556893348694 0.11481346935033798 0.099608846008777618
0.10667599737644196 0.11589755117893219 0.10279065370559692
0.11462195217609406 0.12023650854825974 0.1087169349193573
0.12451277673244476 0.12683862447738647 0.11567748337984085
0.13742370903491974 0.13438905775547028 0.11996060609817505
0.15523973107337952 0.14138320088386536 0.121143639087677
0.17387199401855469 0.14687493443489075 0.13020916283130646
0.20459550619125366 0.14519931375980377 0.13864223659038544
0.23927207291126251 0.14311836659908295 0.14325368404388428
0.2727741003036499 0.14383815228939056 0.14434486627578735
0.30578204989433289 0.1446787565946579 0.14211492240428925
0.33746370673179626 0.14474122226238251 0.14180672168731689
0.36594709753990173 0.14529691636562347 0.15010224282741547
0.39291262626647949 0.14686660468578339 0.16219453513622284
0.41904172301292419 0.14909729361534119 0.17610408365726471
0.44516932964324951 0.15182213485240936 0.18899728357791901
0.47157385945320129 0.15519590675830841 0.19884686172008514
0.49673560261726379 0.15934284031391144 0.20662710070610046
0.5215488076210022 0.16349495947360992 0.21247009932994843
0.54655945301055908 0.16765367984771729 0.21744629740715027
0.57084423303604126 0.17231260240077972 0.22248539328575134
0.59471809864044189 0.17719918489456177 0.22656354308128357
0.61864149570465088 0.18191477656364441 0.22956161201000214
0.64184319972991943 0.18616187572479248 0.23225277662277222
0.66282510757446289 0.18911507725715637 0.23340436816215515
0.68250375986099243 0.19097976386547089 0.23246185481548309
0.70141124725341797 0.19203002750873566 0.2299492359161377
0.71973317861557007 0.19253453612327576 0.22662124037742615
0.73747515678405762 0.19258274137973785 0.22284838557243347
0.75561892986297607 0.19215857982635498 0.21839110553264618
0.77451533079147339 0.19132904708385468 0.21342852711677551
0.79411405324935913 0.19013656675815582 0.20815786719322205
0.11794203519821167 0.13933800160884857 0.1165376603603363
0.12532712519168854 0.1409546285867691 0.12024471908807755
0.13492201268672943 0.14573289453983307 0.12699578702449799
0.14550518989562988 0.15135753154754639 0.13475321233272552
0.15688788890838623 0.15776555240154266 0.14036178588867188
0.16996371746063232 0.16470405459403992 0.14244382083415985
0.18083456158638 0.17076681554317474 0.15252839028835297
0.20162025094032288 0.17346614599227905 0.16107925772666931
0.23413227498531342 0.17501859366893768 0.16195490956306458
0.26915514469146729 0.17649620771408081 0.15715441107749939
0.30402880907058716 0.17690788209438324 0.14771543443202972
0.33611634373664856 0.17711225152015686 0.14433136582374573
0.36399632692337036 0.17807044088840485 0.15240965783596039
0.3900134265422821 0.17976120114326477 0.16561213135719299
0.41571810841560364 0.18170295655727386 0.18021611869335175
0.44154283404350281 0.18380902707576752 0.19462749361991882
0.46699005365371704 0.18630023300647736 0.2077493816614151
0.49242693185806274 0.18918174505233765 0.21671578288078308
0.51858741044998169 0.19171054661273956 0.22246728837490082
0.54487890005111694 0.19401085376739502 0.2271847128868103
0.57032245397567749 0.19659560918807983 0.23124642670154572
0.59537464380264282 0.19945530593395233 0.23419384658336639
0.62000608444213867 0.20265187323093414 0.23651909828186035
0.64249187707901001 0.20566144585609436 0.23874612152576447
0.66285187005996704 0.20787478983402252 0.23888383805751801
0.68204540014266968 0.20949110388755798 0.23729608952999115
0.70049339532852173 0.21061494946479797 0.23452024161815643
0.71796852350234985 0.21140260994434357 0.23133476078510284
0.73541420698165894 0.21176287531852722 0.22739262878894806
0.75349152088165283 0.21171095967292786 0.22282370924949646
0.77237033843994141 0.21124464273452759 0.21773891150951385
0.79198074340820312 0.21038852632045746 0.21233081817626953
0.13376162946224213 0.1643931120634079 0.13187673687934875
0.14322347939014435 0.16666297614574432 0.13693259656429291
0.15429989993572235 0.17017318308353424 0.14479127526283264
0.16425316035747528 0.17392286658287048 0.15153723955154419
0.17475661635398865 0.17941012978553772 0.15676940977573395
0.18536147475242615 0.18590012192726135 0.16264799237251282
0.19446222484111786 0.19250692427158356 0.1726839691400528
0.2076738029718399 0.19950070977210999 0.17650748789310455
0.23665167391300201 0.20371164381504059 0.17184244096279144
0.2707977294921875 0.2057492583990097 0.16213859617710114
0.30503919720649719 0.20748181641101837 0.1489749401807785
0.33563300967216492 0.20871512591838837 0.14718583226203918
0.36142539978027344 0.21016697585582733 0.15896503627300262
0.38603231310844421 0.21216118335723877 0.17518755793571472
0.41054761409759521 0.21442870795726776 0.19282244145870209
0.43474358320236206 0.21709389984607697 0.21023279428482056
0.45921632647514343 0.21995845437049866 0.22331072390079498
0.48496115207672119 0.22250640392303467 0.23053449392318726
0.51186227798461914 0.22439293563365936 0.2350076287984848
0.53902065753936768 0.22580097615718842 0.2388588935136795
0.5657804012298584 0.2269071489572525 0.24190998077392578
0.59238201379776001 0.22769278287887573 0.24379360675811768
0.61804389953613281 0.22835220396518707 0.2452753484249115
0.64045065641403198 0.22936525940895081 0.24617078900337219
0.66074520349502563 0.23051230609416962 0.2453380674123764
0.6798519492149353 0.23161406815052032 0.24316276609897614
0.6976960301399231 0.23271965980529785 0.24051551520824432
0.71481865644454956 0.23363667726516724 0.23721484839916229
0.73230439424514771 0.23419758677482605 0.23313635587692261
0.75045156478881836 0.23437570035457611 0.22843316197395325
0.76940709352493286 0.23415000736713409 0.22320201992988586
0.78909236192703247 0.23353323340415955 0.21763807535171509
0.14861854910850525 0.18981592357158661 0.14619556069374084
0.1598832756280899 0.19077987968921661 0.15228042006492615
0.17014986276626587 0.19229826331138611 0.15833385288715363
0.18012425303459167 0.19536773860454559 0.1642080694437027
0.19132845103740692 0.20106321573257446 0.17042146623134613
0.20273040235042572 0.20760193467140198 0.18088029325008392
0.21322450041770935 0.21426314115524292 0.18845105171203613
0.22608055174350739 0.22125869989395142 0.1846204400062561
0.24497820436954498 0.22953920066356659 0.17895209789276123
0.27449110150337219 0.23509117960929871 0.16951967775821686
0.3067857027053833 0.2380235344171524 0.15730714797973633
0.33314767479896545 0.23983356356620789 0.16053001582622528
0.3568369448184967 0.24167497456073761 0.17591878771781921
0.38034117221832275 0.24404603242874146 0.19450314342975616
0.40346425771713257 0.24699480831623077 0.21477635204792023
0.42636692523956299 0.25041064620018005 0.2326878160238266
0.45087912678718567 0.25357413291931152 0.24285450577735901
0.47671312093734741 0.25618556141853333 0.24890151619911194
0.50358748435974121 0.25810745358467102 0.25290402770042419
0.53104907274246216 0.25922691822052002 0.25612211227416992
0.55811631679534912 0.25982263684272766 0.2585112452507019
0.58461892604827881 0.26001676917076111 0.25918695330619812
0.60996133089065552 0.25983080267906189 0.25800874829292297
0.63344424962997437 0.25955408811569214 0.25583654642105103
0.65472966432571411 0.25958085060119629 0.25361022353172302
0.67411226034164429 0.259987473487854 0.25130254030227661
0.69186276197433472 0.26076063513755798 0.248662069439888
0.70931917428970337 0.26151767373085022 0.24517057836055756
0.72710520029067993 0.26204416155815125 0.24093852937221527
0.74549269676208496 0.26225060224533081 0.236072838306427
0.76464945077896118 0.26209256052970886 0.23066668212413788
0.78449916839599609 0.2615668773651123 0.22491729259490967
0.16186080873012543 0.21320152282714844 0.15860109031200409
0.17290711402893066 0.21290044486522675 0.16364504396915436
0.18343044817447662 0.21401943266391754 0.16913847625255585
0.19437408447265625 0.21745714545249939 0.17528870701789856
0.20692907273769379 0.22321584820747375 0.18379557132720947
0.21936383843421936 0.22914843261241913 0.19252084195613861
0.23128603398799896 0.23532368242740631 0.19319038093090057
0.24426274001598358 0.24220564961433411 0.18681289255619049
0.260235995054245 0.25238069891929626 0.18449154496192932
0.28320020437240601 0.26341411471366882 0.18486501276493073
0.30695012211799622 0.26796954870223999 0.18721817433834076
0.3293222188949585 0.26957756280899048 0.19144655764102936
0.351756751537323 0.27172428369522095 0.20289196074008942
0.37384682893753052 0.2751900851726532 0.22129479050636292
0.39543998241424561 0.27928611636161804 0.24189987778663635
0.41875392198562622 0.28309398889541626 0.25474953651428223
0.44382849335670471 0.28631648421287537 0.26251065731048584
0.47014820575714111 0.28883081674575806 0.26762568950653076
0.49745139479637146 0.29043647646903992 0.27149718999862671
0.5246703028678894 0.29121533036231995 0.27462047338485718
0.55107927322387695 0.29165351390838623 0.27599805593490601
0.57645612955093384 0.2918286919593811 0.27543371915817261
0.60041886568069458 0.29181727766990662 0.27306568622589111
0.6231229305267334 0.29168990254402161 0.26937893033027649
0.64450603723526001 0.29166093468666077 0.26560476422309875
0.66415667533874512 0.29193171858787537 0.26203516125679016
0.68329912424087524 0.29224926233291626 0.25814017653465271
0.70222461223602295 0.29261830449104309 0.25396150350570679
0.72081899642944336 0.29294416308403015 0.24945566058158875
0.73959940671920776 0.29300370812416077 0.24440200626850128
0.75905948877334595 0.29273644089698792 0.23877909779548645
0.77914220094680786 0.29218056797981262 0.23282763361930847
0.1725018322467804 0.23563936352729797 0.16844235360622406
0.18401716649532318 0.2352430671453476 0.17330463230609894
0.19530922174453735 0.23649570345878601 0.17898452281951904
0.20754131674766541 0.24007874727249146 0.1858481764793396
0.2212803065776825 0.24478738009929657 0.19378447532653809
0.23439644277095795 0.25004661083221436 0.1971215158700943
0.24725322425365448 0.25596565008163452 0.19490154087543488
0.26019474864006042 0.26297998428344727 0.19261844456195831
0.27606046199798584 0.27354961633682251 0.19580048322677612
0.29165506362915039 0.28423702716827393 0.20913344621658325
0.30865943431854248 0.29169809818267822 0.22124458849430084
0.32791587710380554 0.2961752712726593 0.22952978312969208
0.34830406308174133 0.30022573471069336 0.23739628493785858
0.36817678809165955 0.30539271235466003 0.25154909491539001
0.38975858688354492 0.31017225980758667 0.26554664969444275
0.41400939226150513 0.3141038715839386 0.27475032210350037
0.43974512815475464 0.31729581952095032 0.28122955560684204
0.46657633781433105 0.31963056325912476 0.28609570860862732
0.49359875917434692 0.3208935558795929 0.2899898886680603
0.5197252631187439 0.32176670432090759 0.29240208864212036
0.54491192102432251 0.32242631912231445 0.29267853498458862
0.56885761022567749 0.32288777828216553 0.29100286960601807
0.59136807918548584 0.323199063539505 0.2879825234413147
0.61275440454483032 0.32347342371940613 0.28428944945335388
0.63255643844604492 0.32398760318756104 0.28094643354415894
0.65205079317092896 0.32455870509147644 0.27685004472732544
0.67201995849609375 0.32508307695388794 0.27214565873146057
0.69216722249984741 0.3255181610584259 0.26714584231376648
0.71146500110626221 0.32577615976333618 0.26206186413764954
0.73081713914871216 0.32568475604057312 0.25623378157615662
0.75075560808181763 0.32526388764381409 0.24995642900466919
0.77100616693496704 0.32460567355155945 0.24364018440246582
0.18184506893157959 0.25847935676574707 0.17727062106132507
0.19416745007038116 0.25791677832603455 0.18240930140018463
0.20624463260173798 0.2588980495929718 0.18815718591213226
0.21961449086666107 0.26188600063323975 0.19430491328239441
0.23388898372650146 0.26594707369804382 0.19888928532600403
0.24757868051528931 0.27084904909133911 0.20028316974639893
0.26018249988555908 0.27623084187507629 0.20132040977478027
0.27293476462364197 0.28297308087348938 0.2046220600605011
0.2877936065196991 0.29175028204917908 0.2144714742898941
0.30163174867630005 0.30084753036499023 0.23128397762775421
0.31591489911079407 0.3102588951587677 0.24760867655277252
0.33178287744522095 0.31846931576728821 0.2614399790763855
0.3493068516254425 0.32586655020713806 0.2699400782585144
0.36782917380332947 0.33260589838027954 0.27643272280693054
0.38922664523124695 0.33821016550064087 0.28529855608940125
0.41349855065345764 0.3427416980266571 0.29291796684265137
0.43921002745628357 0.34629324078559875 0.29923325777053833
0.46505290269851685 0.34861618280410767 0.30501022934913635
0.4904538094997406 0.35010096430778503 0.30867281556129456
0.51509028673171997 0.35137134790420532 0.31000488996505737
0.53868067264556885 0.35243120789527893 0.3090679943561554
0.56113177537918091 0.35329115390777588 0.30629804730415344
0.58250772953033447 0.35399669408798218 0.30276480317115784
0.60242551565170288 0.35483184456825256 0.29975223541259766
0.62184476852416992 0.35579457879066467 0.29617202281951904
0.64191317558288574 0.35673069953918457 0.29188761115074158
0.66256022453308105 0.35754004120826721 0.2870713472366333
0.68236649036407471 0.35815000534057617 0.28223308920860291
0.7014920711517334 0.35837101936340332 0.27655169367790222
0.72096341848373413 0.35819476842880249 0.27022272348403931
0.74065470695495605 0.35773172974586487 0.26379626989364624
0.76094329357147217 0.35701256990432739 0.25696790218353271
0.19021512567996979 0.28081402182579041 0.18519926071166992
0.20293308794498444 0.27992615103721619 0.19009062647819519
0.21573780477046967 0.28091877698898315 0.19495883584022522
0.23032571375370026 0.28392598032951355 0.19956925511360168
0.24512730538845062 0.28769910335540771 0.20352770388126373
0.25853398442268372 0.29190394282341003 0.20728066563606262
0.27051487565040588 0.29637780785560608 0.21211354434490204
0.28335830569267273 0.3019280731678009 0.21939340233802795
0.297944575548172 0.30887764692306519 0.23289008438587189
0.311656653881073 0.31753930449485779 0.25243330001831055
0.32576665282249451 0.3279380202293396 0.27072227001190186
0.34105744957923889 0.33887556195259094 0.28367611765861511
0.35732051730155945 0.3488425612449646 0.29164630174636841
0.37451538443565369 0.35718512535095215 0.29719656705856323
0.39381659030914307 0.36404705047607422 0.30239146947860718
0.41624584794044495 0.36987283825874329 0.30953711271286011
0.43983331322669983 0.37399089336395264 0.31750237941741943
0.46355468034744263 0.37662765383720398 0.32298371195793152
0.48715260624885559 0.37866833806037903 0.32576605677604675
0.51021236181259155 0.38035750389099121 0.32597792148590088
0.53245627880096436 0.38178172707557678 0.32398894429206848
0.55404102802276611 0.38302195072174072 0.3206784725189209
0.57421481609344482 0.38426399230957031 0.31787297129631042
0.59353351593017578 0.38563033938407898 0.31500768661499023
0.61351704597473145 0.38699978590011597 0.31128776073455811
0.63427895307540894 0.38825070858001709 0.3068310022354126
0.654632568359375 0.38928869366645813 0.30218112468719482
0.67371362447738647 0.38991785049438477 0.29687124490737915
0.69277948141098022 0.39007407426834106 0.29066234827041626
0.71191436052322388 0.38987842202186584 0.28425362706184387
0.73158943653106689 0.38937181234359741 0.27731472253799438
0.75206267833709717 0.38861814141273499 0.2699144184589386
0.19686900079250336 0.30292779207229614 0.19125634431838989
0.21017004549503326 0.30212098360061646 0.19569998979568481
0.22459019720554352 0.30364394187927246 0.20002986490726471
0.24047422409057617 0.30593514442443848 0.20538701117038727
0.2549709677696228 0.30857360363006592 0.21070481836795807
0.26785328984260559 0.31150975823402405 0.21640489995479584
0.27992722392082214 0.31508365273475647 0.22361472249031067
0.29314437508583069 0.32021620869636536 0.23412740230560303
0.30788743495941162 0.32688707113265991 0.25138223171234131
0.32226619124412537 0.33540520071983337 0.26998341083526611
0.33729854226112366 0.34613600373268127 0.28457558155059814
0.35324308276176453 0.35809007287025452 0.2968648374080658
0.36951068043708801 0.36955973505973816 0.30654889345169067
0.38547807931900024 0.37893259525299072 0.31312361359596252
