shell/ffmpeg_scripts/linux/selective-colour-lut-keep-only-red-001.cube
# Created by: G'MIC (https://gmic.eu)
TITLE "output"
# LUT size
LUT_3D_SIZE 5
# Data domain
# LUT data points
DOMAIN_MIN 0.000000 0.000000 0.000000
DOMAIN_MAX 0.903226 0.903226 0.903226
0.030940735712647438 0.030976060777902603 0.030977314338088036
0.17458604276180267 0.072086155414581299 0.094716012477874756
0.42028307914733887 0.0771198570728302 0.16412964463233948
0.58611762523651123 0.11759862303733826 0.20775657892227173
0.7434191107749939 0.12731724977493286 0.20900143682956696
0.14861854910850525 0.18981592357158661 0.14619556069374084
0.22608055174350739 0.22125869989395142 0.1846204400062561
0.40346425771713257 0.24699480831623077 0.21477635204792023
0.58461892604827881 0.26001676917076111 0.25918695330619812
0.72710520029067993 0.26204416155815125 0.24093852937221527
0.20703254640102386 0.34889844059944153 0.1996067613363266
0.31226342916488647 0.35891145467758179 0.25731769204139709
0.42434191703796387 0.42489582300186157 0.33644673228263855
0.54502880573272705 0.46737787127494812 0.36150547862052917
0.67706114053726196 0.47921571135520935 0.33131667971611023
0.21911951899528503 0.50607144832611084 0.21624410152435303
0.35248175263404846 0.50724911689758301 0.27379834651947021
0.48420843482017517 0.55423825979232788 0.3448774516582489
0.61754274368286133 0.61898207664489746 0.40928688645362854
0.73357874155044556 0.65199774503707886 0.40428921580314636
0.20125174522399902 0.67536050081253052 0.19992344081401825
0.34810236096382141 0.65849190950393677 0.24339544773101807
0.49744823575019836 0.68300831317901611 0.31151372194290161
0.64941686391830444 0.73626548051834106 0.390144944190979
0.77289307117462158 0.77387052774429321 0.39598897099494934
0.10193593055009842 0.097562789916992188 0.133061483502388
0.20764137804508209 0.082888364791870117 0.18540449440479279
0.43979188799858093 0.082853280007839203 0.24162480235099792
0.60638856887817383 0.14401742815971375 0.30861380696296692
0.72643887996673584 0.14495347440242767 0.32275727391242981
0.16609761118888855 0.20319938659667969 0.20277437567710876
0.22950473427772522 0.22869123518466949 0.22863712906837463
0.41905111074447632 0.24126991629600525 0.28490111231803894
0.60503691434860229 0.24736166000366211 0.34960931539535522
0.71839433908462524 0.26098895072937012 0.35955092310905457
0.23755303025245667 0.36791372299194336 0.30015599727630615
0.35174238681793213 0.3789181113243103 0.35103514790534973
0.44092315435409546 0.44098407030105591 0.43981629610061646
0.53668326139450073 0.48353686928749084 0.47886911034584045
0.66777801513671875 0.48377892374992371 0.45011946558952332
0.25496301054954529 0.52294397354125977 0.34354484081268311
0.3892744779586792 0.51098901033401489 0.38856285810470581
0.51570808887481689 0.55169886350631714 0.47935020923614502
0.62936776876449585 0.62997633218765259 0.57589352130889893
0.71057337522506714 0.66251271963119507 0.56672316789627075
0.23239569365978241 0.68111252784729004 0.34387168288230896
0.38436675071716309 0.65443623065948486 0.38345062732696533
0.52038830518722534 0.66157758235931396 0.4490186870098114
0.6604691743850708 0.71844613552093506 0.5449562668800354
0.76561284065246582 0.76642423868179321 0.56877803802490234
0.16246312856674194 0.13446961343288422 0.30381923913955688
0.23133142292499542 0.1458437591791153 0.31360992789268494
0.42061799764633179 0.16004523634910583 0.38714125752449036
0.65037786960601807 0.18071439862251282 0.42524141073226929
0.76685601472854614 0.18202775716781616 0.45075410604476929
0.19827231764793396 0.2524561882019043 0.31002029776573181
0.26229950785636902 0.25408771634101868 0.33162903785705566
0.40478909015655518 0.28122943639755249 0.38246232271194458
0.67401909828186035 0.23848362267017365 0.44837257266044617
0.76828783750534058 0.27901312708854675 0.47023364901542664
0.26223504543304443 0.3960997462272644 0.40054169297218323
0.37449419498443604 0.40438327193260193 0.40401372313499451
0.45276913046836853 0.45276913046836853 0.45276913046836853
0.53210794925689697 0.50272691249847412 0.50884413719177246
0.7567175030708313 0.46935057640075684 0.5531647801399231
0.27868404984474182 0.55124181509017944 0.45998114347457886
0.41821849346160889 0.54029732942581177 0.47904688119888306
0.56379276514053345 0.58531868457794189 0.56379932165145874
0.66373896598815918 0.66373896598815918 0.66373896598815918
0.73034429550170898 0.70412003993988037 0.69642138481140137
0.25915360450744629 0.7079806923866272 0.48337233066558838
0.42384034395217896 0.68059265613555908 0.50926899909973145
0.57906222343444824 0.69061964750289917 0.57889020442962646
0.72371220588684082 0.75371158123016357 0.69358932971954346
0.81745928525924683 0.81775093078613281 0.76384413242340088
0.1796109527349472 0.15913841128349304 0.44304552674293518
0.2653161883354187 0.2011856734752655 0.38953456282615662
0.39779874682426453 0.2555449903011322 0.44494399428367615
0.62833946943283081 0.23881247639656067 0.53672683238983154
0.81633961200714111 0.23384852707386017 0.58938604593276978
0.20864465832710266 0.28467285633087158 0.44638520479202271
0.30089452862739563 0.30140659213066101 0.38156384229660034
0.38929843902587891 0.35557353496551514 0.39781370759010315
0.62417703866958618 0.35493907332420349 0.52987790107727051
0.82122868299484253 0.34711715579032898 0.58655345439910889
0.27774989604949951 0.43716302514076233 0.51708459854125977
0.40357393026351929 0.44375619292259216 0.48396885395050049
0.4731438159942627 0.47319373488426208 0.48026430606842041
0.57374554872512817 0.51029020547866821 0.54744768142700195
0.79320573806762695 0.48762989044189453 0.63075178861618042
0.29853951930999756 0.57903748750686646 0.57904595136642456
0.44068336486816406 0.56261599063873291 0.56259328126907349
0.56911051273345947 0.59544813632965088 0.59540861845016479
0.67522549629211426 0.67522549629211426 0.67522549629211426
0.73818737268447876 0.72767853736877441 0.73098856210708618
0.27048048377037048 0.72142612934112549 0.60867947340011597
0.4342421293258667 0.70035320520401001 0.61165553331375122
0.61284762620925903 0.7232513427734375 0.66806638240814209
0.78594028949737549 0.80105549097061157 0.78598737716674805
0.88393032550811768 0.88393032550811768 0.88393032550811768
0.16373497247695923 0.16209731996059418 0.58839774131774902
0.2842765748500824 0.19710461795330048 0.54664909839630127
0.42447572946548462 0.25636938214302063 0.58320271968841553
0.60895794630050659 0.26558533310890198 0.65689462423324585
0.812957763671875 0.2241094708442688 0.70496422052383423
0.19428962469100952 0.29359778761863708 0.58618623018264771
0.31396827101707458 0.31503364443778992 0.5237046480178833
0.42520192265510559 0.37570124864578247 0.5213809609413147
0.59472310543060303 0.39815753698348999 0.60944980382919312
0.79804497957229614 0.35856053233146667 0.68288314342498779
0.2605336606502533 0.45487117767333984 0.64919173717498779
0.39775356650352478 0.46495029330253601 0.59892112016677856
0.49434459209442139 0.49470019340515137 0.56407052278518677
0.59781599044799805 0.53581225872039795 0.59264928102493286
0.73719114065170288 0.54219216108322144 0.69190871715545654
0.29969257116317749 0.60541301965713501 0.70737046003341675
0.45461785793304443 0.59892076253890991 0.67109686136245728
0.58872395753860474 0.624778151512146 0.66078448295593262
0.69243752956390381 0.69183504581451416 0.69453245401382446
0.76768374443054199 0.73107439279556274 0.75895494222640991
0.28549212217330933 0.75215089321136475 0.75215470790863037
0.45511850714683533 0.73480325937271118 0.73479509353637695
0.61841398477554321 0.7447095513343811 0.74468564987182617
0.76079457998275757 0.79210805892944336 0.79207468032836914
0.89606988430023193 0.89610838890075684 0.89610838890075684
